LUTSource/05 Hush.cube
#Created by: Byungjin (Chris) Choi
#Copyright: (C) Copyright 2026 Mellow
TITLE "Pastel"
#LUT size
LUT_3D_SIZE 8
#data domain
#LUT data points
DOMAIN_MIN 0.000000 0.000000 0.000000
DOMAIN_MAX 0.903226 0.903226 0.903226
0.031372 0.035309 0.043152
0.052002 0.035309 0.039734
0.141296 0.043152 0.036316
0.279694 0.029846 0.023529
0.457184 0.002014 0.007843
0.625824 0.000000 0.001404
0.781677 0.003052 0.001770
0.911835 0.080841 0.000000
0.029846 0.049072 0.041626
0.060333 0.064758 0.031891
0.171661 0.082367 0.031372
0.310028 0.078430 0.018097
0.479340 0.064270 0.002014
0.641998 0.057434 0.000519
0.780914 0.087921 0.000000
0.917023 0.153687 0.003937
0.000000 0.142303 0.054016
0.019623 0.147614 0.057434
0.147125 0.182526 0.022522
0.347870 0.212891 0.000000
0.517914 0.202148 0.000000
0.668579 0.207581 0.000000
0.804169 0.230591 0.000000
0.927887 0.271851 0.001007
0.000000 0.292328 0.095642
0.000000 0.290833 0.103485
0.039612 0.315857 0.080963
0.290833 0.369873 0.007233
0.550812 0.413025 0.003418
0.701721 0.388458 0.002777
0.826324 0.376831 0.000000
0.935364 0.399353 0.002014
0.000000 0.463013 0.153076
0.000000 0.459595 0.149658
0.001007 0.459076 0.149292
0.196808 0.496918 0.101837
0.455170 0.543457 0.000000
0.718048 0.592560 0.003418
0.845306 0.563080 0.000000
0.952698 0.530945 0.000000
0.001404 0.608734 0.236206
0.005951 0.608246 0.233154
0.001526 0.601898 0.247955
0.194550 0.614166 0.220764
0.395844 0.647461 0.174713
0.619598 0.683258 0.039612
0.842377 0.727264 0.001892
0.950806 0.693481 0.000000
0.075958 0.730682 0.365967
0.132355 0.730682 0.377625
0.222534 0.726898 0.374084
0.315369 0.729156 0.379913
0.435822 0.748383 0.351562
0.577881 0.773315 0.316650
0.734589 0.793427 0.235687
0.925354 0.826691 0.060760
0.420502 0.837708 0.554199
0.432007 0.838593 0.558624
0.459351 0.839600 0.561035
0.500824 0.840118 0.570648
0.548004 0.848328 0.567871
0.623535 0.859070 0.535370
0.729797 0.877289 0.503723
0.838074 0.896515 0.436188
0.035309 0.028473 0.072113
0.060852 0.030853 0.064270
0.149658 0.019104 0.064758
0.296753 0.003418 0.077911
0.465668 0.000000 0.078796
0.631256 0.002533 0.068695
0.786713 0.000000 0.058685
0.914856 0.088684 0.034027
0.019104 0.064270 0.072601
0.075012 0.072113 0.091217
0.175079 0.078949 0.086792
0.316864 0.074524 0.081848
0.485168 0.065643 0.073639
0.647461 0.052612 0.064758
0.791168 0.095764 0.048584
0.919159 0.161163 0.033020
0.043152 0.165344 0.115234
0.062225 0.160889 0.108398
0.166351 0.185944 0.088287
0.353302 0.206055 0.067688
0.522980 0.199615 0.062103
0.667053 0.208466 0.041107
0.803406 0.228210 0.014282
0.927399 0.270325 0.004059
0.003418 0.310028 0.151550
0.000000 0.311951 0.148010
0.098541 0.323700 0.139893
0.304108 0.376312 0.081848
0.553833 0.412506 0.000519
0.708557 0.378723 0.003937
0.833282 0.377228 0.001404
0.938538 0.400879 0.005066
0.002411 0.473389 0.194305
0.000000 0.471375 0.189392
0.004547 0.469116 0.202026
0.233490 0.502716 0.167877
0.471863 0.543976 0.074402
0.718567 0.591400 0.000519
0.844421 0.559662 0.002411
0.950287 0.528534 0.000000
0.000000 0.612671 0.278046
0.000000 0.612152 0.282623
0.039856 0.607971 0.287567
0.239075 0.620361 0.276154
0.418488 0.651367 0.231873
0.626068 0.686035 0.162201
0.846954 0.724731 0.000885
0.952301 0.691986 0.000519
0.163086 0.736633 0.396576
0.202423 0.732330 0.399994
0.263641 0.732697 0.395447
0.346985 0.728424 0.408722
0.451263 0.747772 0.382568
0.587616 0.771027 0.350555
0.748016 0.793427 0.290833
0.923584 0.830872 0.175354
0.443512 0.842133 0.574585
0.451874 0.841614 0.584198
0.471710 0.841003 0.582550
0.510193 0.840485 0.578888
0.561432 0.847443 0.586700
0.631500 0.862122 0.565582
0.731079 0.878174 0.525482
0.845917 0.896515 0.472229
0.015686 0.028473 0.168732
0.083862 0.023529 0.179993
0.181519 0.019623 0.170776
0.309540 0.006317 0.166351
0.490601 0.001007 0.169617
0.649841 0.001007 0.165344
0.777863 0.005066 0.190247
0.913727 0.118530 0.187592
0.003418 0.084381 0.191772
0.081848 0.089172 0.185455
0.194794 0.087799 0.201019
0.331055 0.080963 0.187836
0.507172 0.001526 0.175720
0.648071 0.059845 0.185944
0.788116 0.117889 0.185944
0.913208 0.181641 0.183167
0.000000 0.188354 0.197205
0.080444 0.194305 0.204559
0.208984 0.203156 0.208069
0.367859 0.208984 0.211884
0.527771 0.210999 0.203033
0.675415 0.223267 0.190369
0.804169 0.242493 0.193298
0.918915 0.282715 0.184418
0.047668 0.341919 0.242859
0.138885 0.351166 0.257538
0.202148 0.352661 0.250580
0.351654 0.384552 0.222748
0.567871 0.398712 0.199585
0.708679 0.379761 0.190887
0.824921 0.387207 0.183533
0.934601 0.406677 0.181519
0.115967 0.497437 0.316010
0.131531 0.501221 0.305115
0.190491 0.496399 0.294525
0.299286 0.511566 0.283112
0.499329 0.553223 0.244415
0.723358 0.581177 0.192780
0.843536 0.554230 0.187592
0.947021 0.533600 0.191895
0.144592 0.630249 0.373444
0.154205 0.631256 0.363556
0.231873 0.627350 0.363953
0.322449 0.618988 0.363068
0.459595 0.654785 0.334839
0.638580 0.684631 0.298553
0.845795 0.718048 0.232635
0.949280 0.689575 0.231232
0.284882 0.737640 0.461243
0.304352 0.738403 0.462097
0.346619 0.737518 0.464386
0.404938 0.737000 0.470856
0.487671 0.742432 0.457306
0.606354 0.769897 0.432526
0.752197 0.795197 0.388855
0.936493 0.832123 0.325745
0.475647 0.841614 0.609344
0.488037 0.839966 0.610504
0.505615 0.838074 0.612396
0.541809 0.841125 0.620758
0.586334 0.845428 0.624664
0.645935 0.859589 0.601501
0.734741 0.879333 0.580658
0.842773 0.895142 0.527252
0.000000 0.029846 0.333069
0.081970 0.031372 0.335968
0.234009 0.019623 0.335083
0.387085 0.002411 0.348755
0.514130 0.002411 0.325348
0.677307 0.001007 0.320282
0.816956 0.001526 0.303223
0.930176 0.002014 0.295258
0.000000 0.097137 0.345856
0.080444 0.097137 0.345459
0.247681 0.103973 0.354187
0.401245 0.100555 0.359497
0.524384 0.107513 0.336487
0.682617 0.098755 0.328003
0.818604 0.037659 0.314331
0.925751 0.155090 0.311951
0.001007 0.221375 0.353180
0.006958 0.218842 0.356201
0.238831 0.227173 0.365448
0.403778 0.246277 0.370880
0.551300 0.258057 0.362915
0.692474 0.237946 0.335968
0.810760 0.253632 0.331665
0.912598 0.320435 0.346344
0.000000 0.377716 0.363556
0.074127 0.379730 0.368866
0.249695 0.393402 0.377716
0.415405 0.404266 0.390991
0.564087 0.409088 0.388977
0.695374 0.403778 0.372162
0.813019 0.416046 0.358124
0.923218 0.433502 0.359375
0.200409 0.529297 0.417450
0.254181 0.531189 0.419861
0.354218 0.535614 0.432648
0.413025 0.533234 0.426178
0.546356 0.565979 0.408600
0.724762 0.570557 0.390625
0.838593 0.546875 0.376709
0.936127 0.547272 0.366455
0.367859 0.651764 0.509155
0.394440 0.654297 0.510559
0.405670 0.650848 0.498932
0.435150 0.648315 0.485626
0.512604 0.656799 0.471832
0.666412 0.688446 0.451355
0.843506 0.711212 0.424286
0.942841 0.679718 0.406830
0.452850 0.750031 0.578369
0.452881 0.748779 0.572906
0.455261 0.749786 0.563049
0.491211 0.745728 0.556366
0.541046 0.742432 0.553314
0.636566 0.768890 0.542175
0.766846 0.791901 0.509277
0.929047 0.829742 0.474365
0.545105 0.844788 0.672607
0.546997 0.845917 0.674896
0.549896 0.848694 0.663116
0.580780 0.847565 0.667572
0.621124 0.842377 0.674896
0.673492 0.856659 0.666168
0.747620 0.876923 0.643768
0.851746 0.895386 0.610504
0.001892 0.047333 0.510193
0.074615 0.046692 0.510193
0.261963 0.040222 0.518036
0.442993 0.042877 0.527924
0.602295 0.051392 0.533722
0.691986 0.103241 0.492493
0.821014 0.197479 0.489716
0.936249 0.234924 0.480713
0.000519 0.119812 0.524384
0.086151 0.123596 0.525391
0.279572 0.129028 0.527405
0.450714 0.146240 0.535126
0.602417 0.166351 0.538025
0.696411 0.194946 0.503754
0.827850 0.260742 0.499969
0.937622 0.275177 0.490967
0.001007 0.253113 0.527771
0.024902 0.242493 0.535248
0.268799 0.258057 0.538513
0.450836 0.283112 0.544495
0.604309 0.309052 0.550293
0.703247 0.326233 0.519806
0.822906 0.359039 0.507172
0.928284 0.355865 0.492249
0.001526 0.407074 0.530823
0.001007 0.413513 0.533081
0.236938 0.415924 0.539551
0.443390 0.429596 0.556244
0.602295 0.458557 0.570404
0.702362 0.467438 0.543854
0.820892 0.452271 0.525391
0.920959 0.441498 0.497803
0.131989 0.555237 0.541443
0.205322 0.553223 0.550446
0.329681 0.562073 0.554230
0.461243 0.569885 0.565094
0.596222 0.580780 0.582825
0.709564 0.572815 0.566498
0.818970 0.566132 0.544617
0.914856 0.563446 0.534119
0.384705 0.673767 0.597351
0.412903 0.672882 0.599518
0.467438 0.675293 0.609772
0.548401 0.670868 0.617615
0.595581 0.671875 0.611267
0.693237 0.694519 0.602814
0.835175 0.699432 0.583832
0.934357 0.671875 0.559662
0.520050 0.760162 0.669220
0.537781 0.764954 0.668060
0.567993 0.758118 0.674896
0.595459 0.762177 0.669861
0.612915 0.754089 0.656189
0.668823 0.769897 0.654144
0.777618 0.792542 0.641754
0.921570 0.822662 0.615692
0.627716 0.851868 0.745239
0.628601 0.849854 0.748138
0.632263 0.851868 0.742188
0.640106 0.851746 0.733215
0.656677 0.851868 0.724854
0.701965 0.854156 0.723602
0.765594 0.872864 0.715637
0.866669 0.896515 0.699066
0.000000 0.088806 0.686920
0.125488 0.091339 0.680328
0.302704 0.096405 0.687164
0.479309 0.124725 0.699066
0.637604 0.182800 0.703491
0.760529 0.233673 0.708160
0.833801 0.266541 0.665283
0.927887 0.366608 0.655792
0.004547 0.163452 0.684631
0.143463 0.169403 0.691589
0.314117 0.175568 0.692993
0.486389 0.197845 0.700439
0.642517 0.250000 0.708160
0.768524 0.288696 0.710205
0.828735 0.324493 0.669586
0.928650 0.399750 0.664154
0.000000 0.287537 0.693115
0.136627 0.289062 0.695007
0.317535 0.302094 0.695892
0.484619 0.324707 0.703247
0.640503 0.365479 0.711578
0.757996 0.401398 0.714478
0.825317 0.418091 0.677307
0.915497 0.478302 0.672882
0.002411 0.435150 0.695007
0.114258 0.440460 0.695374
0.311066 0.446045 0.704742
0.474121 0.462219 0.705383
0.628723 0.492462 0.718933
0.748779 0.518036 0.722473
0.819855 0.529785 0.690063
0.909943 0.557129 0.692871
0.097839 0.580658 0.693359
0.191681 0.575348 0.694885
0.315491 0.578766 0.696533
0.445404 0.582153 0.705139
0.617859 0.595459 0.716003
0.735626 0.622772 0.728424
0.817078 0.627350 0.714630
0.906525 0.609253 0.697052
0.352203 0.686035 0.706787
0.376495 0.691345 0.709045
0.444519 0.689575 0.712219
0.538910 0.692841 0.714508
0.634918 0.699829 0.729309
0.735870 0.709320 0.739532
0.817566 0.695526 0.717407
0.906128 0.687561 0.695007
0.537628 0.779144 0.743591
0.548889 0.781677 0.741943
0.584198 0.779633 0.747894
0.633514 0.780640 0.755249
0.691467 0.780792 0.763947
0.728790 0.779755 0.751312
0.804169 0.797852 0.745361
0.921570 0.805573 0.739044
0.638824 0.862366 0.796448
0.649200 0.862122 0.798981
0.665649 0.864532 0.801270
0.693481 0.863007 0.802917
0.728027 0.865540 0.801392
0.738007 0.861603 0.795837
0.784058 0.872864 0.788483
0.873383 0.900818 0.777222
0.182037 0.180786 0.820007
0.255920 0.186096 0.820007
0.376984 0.201385 0.819855
0.521942 0.233276 0.822388
0.657318 0.292755 0.826813
0.781036 0.373566 0.833801
0.870972 0.404297 0.824799
0.923981 0.431366 0.798248
0.213043 0.242889 0.826813
0.277283 0.245911 0.823914
0.391022 0.262604 0.822906
0.523834 0.291595 0.823914
0.667053 0.341309 0.830231
0.783691 0.411774 0.829742
0.875275 0.443665 0.831268
0.922852 0.460358 0.796478
0.229858 0.355347 0.821014
0.288300 0.356232 0.818207
0.400513 0.366974 0.826965
0.533722 0.392151 0.828217
0.658081 0.432007 0.826813
0.778381 0.487152 0.829865
0.864899 0.515259 0.830627
0.914124 0.523712 0.802429
0.257446 0.483612 0.822662
0.305878 0.482086 0.827698
0.397461 0.487518 0.822754
0.527405 0.503204 0.823273
0.659210 0.536621 0.830475
0.776215 0.575836 0.833649
0.859467 0.595581 0.834167
0.906647 0.599731 0.807739
0.199890 0.593445 0.814941
0.258575 0.594452 0.808746
0.382782 0.597229 0.815948
0.522949 0.608093 0.821381
0.650360 0.620880 0.825806
0.765961 0.654297 0.837952
0.857056 0.669830 0.837585
0.904236 0.676178 0.816956
0.367371 0.699188 0.815582
0.394562 0.703369 0.822540
0.451385 0.702728 0.820892
0.525757 0.704254 0.817963
0.623413 0.702728 0.821014
0.747894 0.723846 0.830109
0.843018 0.741058 0.845184
0.906006 0.745361 0.838226
0.503235 0.790375 0.819611
0.525879 0.792023 0.826813
0.563049 0.792419 0.824799
0.617584 0.797363 0.830231
0.683502 0.797363 0.831360
0.761932 0.802673 0.838837
0.833527 0.810883 0.847443
0.905243 0.797363 0.830383
0.653778 0.877289 0.848846
0.660736 0.877167 0.853271
0.677032 0.877411 0.850739
0.710175 0.879578 0.852112
0.749664 0.878693 0.857056
0.797363 0.880707 0.861115
0.829620 0.876801 0.859589
0.893372 0.900452 0.849854
0.393433 0.331055 0.920441
0.426056 0.339417 0.917786
0.497772 0.358887 0.922333
0.595581 0.389374 0.920441
0.698303 0.433899 0.917023
0.799744 0.489838 0.919037
0.888184 0.554077 0.920166
0.960022 0.574951 0.917267
0.408997 0.378998 0.923737
0.438324 0.383545 0.921204
0.503479 0.395691 0.917908
0.599609 0.423645 0.916870
0.697906 0.464783 0.916260
0.802277 0.519806 0.922974
0.893494 0.574951 0.915619
0.959656 0.594177 0.920044
0.422272 0.458954 0.917267
0.451355 0.460327 0.919159
0.511688 0.473480 0.915497
0.601898 0.494232 0.918549
0.709167 0.527008 0.915375
0.797211 0.569000 0.912598
0.887177 0.612762 0.917389
0.949646 0.627716 0.917908
0.437469 0.548492 0.915375
0.465271 0.549377 0.918518
0.532196 0.560150 0.922455
0.614807 0.576324 0.919678
0.708801 0.601898 0.917023
0.798889 0.627319 0.914856
0.884888 0.663635 0.917389
0.946625 0.674377 0.916748
0.440857 0.636566 0.911591
0.472595 0.638580 0.910706
0.525726 0.647827 0.913086
0.601379 0.648834 0.916504
0.699310 0.664001 0.914093
0.798737 0.684631 0.917908
0.878052 0.717010 0.918274
0.944336 0.727264 0.922455
0.444275 0.724487 0.910431
0.457947 0.724854 0.910950
0.495758 0.721954 0.908661
0.575806 0.722839 0.910187
0.681732 0.730164 0.916779
0.775848 0.743317 0.913361
0.873505 0.772430 0.925873
0.941956 0.785065 0.927277
0.535095 0.809113 0.909546
0.552948 0.811646 0.914612
0.576996 0.813049 0.915619
0.621490 0.814545 0.910583
0.675659 0.811005 0.912323
0.744843 0.814178 0.912079
0.850220 0.827454 0.923462
0.931824 0.849731 0.925629
0.622772 0.886261 0.909424
0.631256 0.892975 0.916504
0.653778 0.892975 0.912598
0.681091 0.892975 0.912964
0.731964 0.893372 0.919281
0.787994 0.902985 0.925873
0.855408 0.900330 0.924622
0.921204 0.912201 0.932190
