LUTSource/05 Hush.cube
#Created by: Byungjin (Chris) Choi
#Copyright: (C) Copyright 2026 Mellow
TITLE "Pastel"
#LUT size
LUT_3D_SIZE 32
#data domain
DOMAIN_MIN 0.0 0.0 0.0
DOMAIN_MAX 1.0 1.0 1.0
#LUT data points
0.031372 0.035309 0.043152
0.035309 0.035309 0.043152
0.035553 0.035553 0.043396
0.035309 0.035309 0.042389
0.052002 0.035309 0.039734
0.071838 0.037964 0.039215
0.092468 0.036041 0.036804
0.118530 0.038330 0.043152
0.141296 0.043152 0.036316
0.178223 0.038086 0.035309
0.202393 0.032623 0.035309
0.243378 0.037842 0.032501
0.279694 0.029846 0.023529
0.323578 0.023529 0.027466
0.371765 0.008240 0.016083
0.415283 0.002014 0.013794
0.457184 0.002014 0.007843
0.504883 0.000000 0.001770
0.546387 0.003296 0.001648
0.586090 0.000000 0.000000
0.625824 0.000000 0.001404
0.663025 0.000000 0.000000
0.704132 0.006714 0.000000
0.735229 0.003937 0.000000
0.781677 0.003052 0.001770
0.815826 0.000763 0.000000
0.847809 0.013794 0.004547
0.880341 0.044525 0.000000
0.911835 0.080841 0.000000
0.936737 0.109314 0.000000
0.968109 0.140808 0.004059
1.000000 0.164703 0.007843
0.035309 0.035309 0.043152
0.039093 0.039093 0.046936
0.039093 0.039093 0.046936
0.043152 0.035309 0.039459
0.052124 0.035431 0.038849
0.075409 0.042755 0.042114
0.096405 0.040100 0.039734
0.122589 0.043274 0.039093
0.145355 0.042511 0.028595
0.178253 0.043152 0.036316
0.206573 0.048309 0.027588
0.249969 0.040619 0.031250
0.290070 0.033020 0.028839
0.327606 0.027710 0.023407
0.373657 0.017975 0.015564
0.415680 0.007843 0.017456
0.461121 0.001892 0.009613
0.507050 0.002167 0.003937
0.550812 0.000122 0.000000
0.593079 0.000122 0.000000
0.636078 0.000244 0.004059
0.673126 0.000000 0.000000
0.708038 0.002777 0.000244
0.742065 0.000000 0.006592
0.780914 0.000000 0.000000
0.812775 0.003540 0.003784
0.843903 0.039612 0.000000
0.877289 0.065521 0.003540
0.919037 0.096649 0.007202
0.944458 0.128387 0.000244
0.972046 0.152557 0.003784
0.995941 0.172668 0.000122
0.035309 0.035309 0.043152
0.035431 0.035431 0.043274
0.039215 0.039215 0.046539
0.047058 0.039215 0.043152
0.059845 0.043640 0.031891
0.080322 0.046936 0.039856
0.097137 0.051483 0.042389
0.124481 0.051239 0.035919
0.149658 0.054382 0.032898
0.177612 0.051483 0.030731
0.213135 0.055145 0.033783
0.258820 0.049835 0.032501
0.290558 0.047058 0.018219
0.338776 0.038086 0.018463
0.380768 0.032501 0.012909
0.421753 0.022125 0.013397
0.467194 0.004944 0.007324
0.509064 0.004181 0.005432
0.552704 0.000244 0.000000
0.595947 0.001526 0.000000
0.628357 0.002533 0.003937
0.667053 0.001526 0.000244
0.707794 0.002533 0.005066
0.743958 0.004181 0.003662
0.783569 0.007080 0.003662
0.816833 0.036194 0.000000
0.855164 0.064636 0.000000
0.890839 0.086273 0.003174
0.916260 0.113098 0.000000
0.940918 0.137268 0.000000
0.972168 0.160645 0.000244
0.996338 0.181152 0.000000
0.031006 0.036041 0.042755
0.034546 0.039581 0.046295
0.039215 0.040344 0.039093
0.043884 0.043884 0.043152
0.067566 0.048706 0.036041
0.080444 0.059570 0.036041
0.101837 0.056427 0.031738
0.135101 0.060455 0.034912
0.156616 0.057678 0.034424
0.186462 0.064270 0.023895
0.222382 0.066528 0.027466
0.258820 0.067047 0.025696
0.297028 0.061615 0.020355
0.339630 0.054016 0.018219
0.382141 0.050720 0.008209
0.423645 0.044403 0.007843
0.469727 0.032898 0.001892
0.519562 0.025055 0.002167
0.550690 0.017334 0.000000
0.592804 0.011627 0.000366
0.634033 0.010101 0.000366
0.674408 0.013275 0.003540
0.712738 0.017944 0.001129
0.748901 0.025177 0.000000
0.784698 0.045410 0.001770
0.820496 0.067413 0.000000
0.854645 0.089172 0.003296
0.890717 0.112854 0.007324
0.909790 0.132965 0.000000
0.940552 0.156860 0.000366
0.972931 0.173065 0.003784
1.000000 0.200378 0.000366
0.029846 0.049072 0.041626
0.030487 0.056030 0.038330
0.032135 0.052734 0.028717
0.047699 0.059326 0.032776
0.060333 0.064758 0.031891
0.083984 0.072235 0.034790
0.112823 0.079193 0.039215
0.137360 0.080322 0.036560
0.171661 0.082367 0.031372
0.191650 0.077301 0.025940
0.229828 0.083099 0.031006
0.272461 0.074646 0.018585
0.310028 0.078430 0.018097
0.347595 0.076019 0.012390
0.393646 0.072998 0.012665
0.431091 0.069336 0.004547
0.479340 0.064270 0.002014
0.524994 0.060852 0.000519
0.564331 0.058563 0.005188
0.604187 0.055420 0.006836
0.641998 0.057434 0.000519
0.683868 0.056671 0.002167
0.712463 0.064636 0.000519
0.752808 0.075531 0.004822
0.780914 0.087921 0.000000
0.826813 0.105896 0.003174
0.859070 0.121307 0.002777
0.881836 0.138275 0.009247
0.917023 0.153687 0.003937
0.943573 0.176727 0.000000
0.972687 0.193420 0.000000
0.998993 0.216705 0.000519
0.018341 0.071838 0.035919
0.025543 0.071838 0.039093
0.027466 0.068573 0.032623
0.035675 0.076141 0.038971
0.053650 0.080200 0.038849
0.079071 0.088165 0.035919
0.108398 0.096771 0.033142
0.143188 0.101440 0.024414
0.172668 0.103851 0.023285
0.206177 0.102203 0.028351
0.242371 0.097260 0.019745
0.277405 0.096771 0.012390
0.319519 0.100555 0.014801
0.358246 0.099945 0.001251
0.398834 0.099945 0.004425
0.444000 0.097260 0.000000
0.489960 0.096008 0.003937
0.526398 0.096649 0.000641
0.567261 0.095612 0.000641
0.607239 0.094482 0.001770
0.644043 0.097900 0.000000
0.681213 0.100555 0.003296
0.716522 0.106628 0.002258
0.753082 0.111938 0.001251
0.788116 0.126251 0.002411
0.826965 0.133698 0.002014
0.856293 0.150269 0.000641
0.891602 0.163422 0.000000
0.918793 0.181793 0.000000
0.944580 0.198486 0.000000
0.975952 0.214050 0.000000
0.996704 0.236542 0.000000
0.007843 0.089294 0.040741
0.012512 0.092468 0.044647
0.019623 0.091705 0.044647
0.028595 0.092834 0.041870
0.050476 0.099792 0.042877
0.067047 0.101562 0.039215
0.092468 0.111328 0.022766
0.138519 0.124725 0.016449
0.182678 0.130035 0.017090
0.214661 0.128510 0.011780
0.256775 0.131683 0.015564
0.288544 0.125977 0.003174
0.325104 0.134857 0.003174
0.368225 0.129272 0.000000
0.410339 0.130280 0.000763
0.457153 0.128662 0.000000
0.494019 0.130402 0.000763
0.538788 0.129913 0.001404
0.576874 0.134827 0.002411
0.612793 0.134094 0.000000
0.651886 0.134216 0.001770
0.695648 0.138275 0.004669
0.727509 0.145111 0.002655
0.762421 0.148895 0.000000
0.792419 0.158997 0.000000
0.825928 0.171661 0.000763
0.856812 0.179504 0.002136
0.890961 0.188873 0.007599
0.918396 0.209351 0.000763
0.944336 0.225555 0.000244
0.974304 0.241119 0.000763
0.999237 0.257172 0.000000
0.000885 0.113342 0.053619
0.006958 0.116364 0.056671
0.015045 0.113098 0.048828
0.022888 0.112457 0.052246
0.032379 0.123322 0.051361
0.061096 0.124847 0.046051
0.084503 0.132812 0.035431
0.123322 0.141663 0.030487
0.163055 0.159760 0.013916
0.218079 0.170258 0.005585
0.257294 0.172668 0.001251
0.294617 0.166595 0.000000
0.341797 0.170898 0.000000
0.383270 0.160522 0.000000
0.421997 0.158234 0.000000
0.471954 0.158356 0.000000
0.506287 0.163177 0.004944
0.551575 0.163422 0.002655
0.585083 0.166840 0.003296
0.627075 0.172150 0.000000
0.658966 0.170013 0.003052
0.701721 0.172150 0.004303
0.730560 0.178986 0.002014
0.765472 0.186829 0.000000
0.800385 0.195679 0.002655
0.829987 0.200500 0.002289
0.864380 0.213776 0.000885
0.892487 0.224396 0.000000
0.925629 0.234528 0.002136
0.952179 0.247040 0.000000
0.976837 0.262115 0.003784
0.999115 0.275879 0.000000
0.000000 0.142303 0.054016
0.002899 0.144318 0.056030
0.002899 0.145203 0.062744
0.006836 0.141296 0.062744
0.019623 0.147614 0.057434
0.045532 0.152679 0.052002
0.075531 0.158752 0.040466
0.102722 0.166840 0.033508
0.147125 0.182526 0.022522
0.200104 0.193665 0.000000
0.259308 0.214142 0.001007
0.303986 0.221130 0.005829
0.347870 0.212891 0.000000
0.388977 0.208069 0.000000
0.434143 0.207062 0.001007
0.474243 0.204163 0.000000
0.517914 0.202148 0.000000
0.558655 0.203278 0.000000
0.595703 0.205688 0.001648
0.637207 0.205688 0.000000
0.668579 0.207581 0.000000
0.704254 0.210999 0.000000
0.736511 0.216675 0.002014
0.770416 0.223663 0.003021
0.804169 0.230591 0.000000
0.838348 0.236664 0.000763
0.868073 0.249847 0.002258
0.896027 0.259827 0.000000
0.927887 0.271851 0.001007
0.954712 0.277283 0.006592
0.983673 0.289185 0.004181
0.995056 0.306000 0.000000
0.002258 0.174316 0.066162
0.003784 0.176086 0.067810
0.000000 0.174316 0.066162
0.000000 0.175446 0.067291
0.000000 0.179871 0.065643
0.016449 0.181152 0.061096
0.052124 0.189240 0.053619
0.089691 0.197601 0.048462
0.133087 0.205688 0.034271
0.176575 0.222504 0.017334
0.231995 0.237061 0.000000
0.316254 0.263367 0.005066
0.357361 0.266785 0.000000
0.402008 0.262848 0.000519
0.442993 0.261078 0.009613
0.489044 0.257050 0.002014
0.529816 0.246277 0.000000
0.568878 0.243866 0.000000
0.606323 0.243744 0.001129
0.645813 0.244904 0.005066
0.680725 0.244904 0.002533
0.714874 0.248688 0.002655
0.744476 0.254395 0.002777
0.779266 0.259583 0.003540
0.813293 0.267426 0.001129
0.846069 0.271576 0.004059
0.867035 0.281708 0.001770
0.894257 0.290314 0.002258
0.929047 0.298279 0.003418
0.956116 0.305115 0.003052
0.983795 0.316895 0.000122
0.998871 0.332825 0.001129
0.003937 0.210236 0.081085
0.003784 0.210236 0.083618
0.002655 0.210236 0.083618
0.000000 0.214142 0.075775
0.001251 0.212891 0.083618
0.000000 0.214142 0.074524
0.020233 0.224152 0.067413
0.061737 0.231598 0.062225
0.110046 0.242615 0.052002
0.154694 0.258423 0.026581
0.210236 0.270325 0.005310
0.275391 0.286499 0.002655
0.355713 0.315857 0.007324
0.406799 0.316376 0.000000
0.454010 0.312561 0.003937
0.496368 0.311554 0.002655
0.531830 0.302338 0.000763
0.578888 0.299530 0.000000
0.616974 0.289276 0.001251
0.656433 0.284485 0.000000
0.683258 0.287262 0.001282
0.719177 0.283478 0.002655
0.753571 0.295380 0.000000
0.784424 0.300049 0.000000
0.815186 0.302216 0.002533
0.850464 0.310669 0.006958
0.875916 0.314850 0.004700
0.906006 0.325623 0.000000
0.929535 0.332428 0.000000
0.958771 0.338379 0.000000
0.982666 0.347504 0.000122
1.000000 0.356720 0.005188
0.001404 0.248688 0.088806
0.003937 0.253998 0.092743
0.000000 0.250092 0.088806
0.000000 0.250092 0.088806
0.000000 0.250092 0.085510
0.002533 0.247559 0.088806
0.001404 0.257294 0.084747
0.021515 0.263611 0.073120
0.076019 0.279541 0.057678
0.133453 0.287903 0.039978
0.186462 0.306122 0.022522
0.257690 0.315613 0.001404
0.320282 0.332825 0.006317
0.398346 0.367340 0.000000
0.453369 0.375183 0.000000
0.500183 0.365204 0.006317
0.542969 0.361267 0.000641
0.583313 0.351654 0.000000
0.625458 0.346985 0.003662
0.659088 0.336609 0.002045
0.696411 0.334076 0.003937
0.730804 0.328522 0.000000
0.760406 0.332672 0.002777
0.792908 0.336365 0.001007
0.828094 0.341919 0.003052
0.853638 0.341675 0.004303
0.882355 0.352692 0.003296
0.908295 0.356110 0.000000
0.932831 0.362427 0.002533
0.961670 0.368622 0.000244
0.982910 0.378998 0.000000
1.000000 0.389862 0.002533
0.000000 0.292328 0.095642
0.003784 0.293854 0.099548
0.000000 0.290192 0.095886
0.000000 0.293457 0.096771
0.000000 0.290833 0.103485
0.000885 0.290558 0.098907
0.000000 0.297028 0.098053
0.002411 0.303223 0.087799
0.039612 0.315857 0.080963
0.107635 0.329529 0.064758
0.167603 0.343170 0.039734
0.226807 0.350281 0.009247
0.290833 0.369873 0.007233
0.355438 0.382019 0.000000
0.442108 0.410736 0.004303
0.509399 0.425903 0.000000
0.550812 0.413025 0.003418
0.589661 0.410217 0.001526
0.626190 0.402130 0.003143
0.665405 0.394928 0.000000
0.701721 0.388458 0.002777
0.733978 0.379242 0.001526
0.768005 0.377716 0.002411
0.798981 0.374695 0.004425
0.826324 0.376831 0.000000
0.857452 0.381775 0.001648
0.885895 0.390381 0.005341
0.909790 0.390381 0.003418
0.935364 0.399353 0.002014
0.960266 0.399719 0.000000
0.991516 0.409729 0.000000
0.997589 0.411499 0.004822
0.000000 0.337616 0.102966
0.000000 0.335327 0.102966
0.000000 0.335327 0.107513
0.001251 0.334961 0.108795
0.005707 0.332550 0.116516
0.004547 0.331421 0.115356
0.000000 0.338379 0.110931
0.000000 0.341553 0.103485
0.004944 0.349762 0.100586
0.066040 0.366852 0.080566
0.141815 0.375427 0.058044
0.202026 0.386078 0.018982
0.262085 0.401886 0.000000
0.329773 0.413757 0.000000
0.395416 0.428192 0.001770
0.481323 0.454620 0.001648
0.551300 0.476135 0.003540
0.592804 0.466522 0.002167
0.629364 0.457916 0.004547
0.671631 0.449066 0.002289
0.701721 0.447296 0.000000
0.738800 0.436279 0.000000
0.773560 0.428314 0.003296
0.805176 0.419342 0.001648
0.830872 0.415161 0.002289
0.865173 0.418335 0.000000
0.891602 0.420593 0.001648
0.916626 0.421600 0.006348
0.938019 0.430084 0.000000
0.969757 0.432373 0.000000
0.994049 0.439972 0.003784
0.998352 0.445770 0.004547
0.000000 0.377472 0.119812
0.000000 0.377472 0.120056
0.000244 0.377716 0.123596
0.002136 0.378845 0.123962
0.004303 0.379242 0.123322
0.004303 0.377472 0.124603
0.004303 0.375305 0.129028
0.005188 0.378357 0.125977
0.000763 0.387726 0.108765
0.022644 0.397583 0.103851
0.110931 0.406677 0.085785
0.175964 0.419464 0.057037
0.243134 0.437286 0.015686
0.304230 0.451843 0.000244
0.373535 0.465515 0.007843
0.441345 0.477386 0.000000
0.527557 0.496399 0.003937
0.597626 0.516479 0.000000
0.635437 0.513702 0.001038
0.675659 0.502319 0.003296
0.712097 0.494720 0.003540
0.745728 0.488647 0.000000
0.777618 0.481323 0.001770
0.804810 0.472198 0.009216
0.836578 0.464722 0.001770
0.866150 0.458435 0.000000
0.894379 0.458282 0.000000
0.920044 0.454620 0.003540
0.945740 0.461578 0.009247
0.969635 0.461975 0.002014
0.991638 0.469696 0.000000
0.997833 0.475891 0.000000
0.000000 0.419342 0.131317
0.000000 0.423248 0.135223
0.000000 0.421234 0.133209
0.002411 0.417297 0.131317
0.001892 0.419342 0.131317
0.004547 0.419220 0.134460
0.002014 0.419220 0.141052
0.000000 0.418182 0.140045
0.004059 0.420349 0.136108
0.004547 0.435547 0.129028
0.067169 0.447296 0.113739
0.150024 0.454010 0.086151
0.218597 0.463989 0.061584
0.287659 0.481567 0.026672
0.349640 0.489807 0.000122
0.415283 0.503448 0.000000
0.485046 0.513580 0.001892
0.562866 0.535492 0.000275
0.636963 0.563538 0.004913
0.680206 0.556610 0.003784
0.711456 0.546082 0.000000
0.748535 0.538116 0.003784
0.782562 0.531281 0.002777
0.808594 0.520142 0.000000
0.836304 0.516113 0.002014
0.865540 0.505493 0.000763
0.896149 0.504211 0.000000
0.922333 0.495117 0.000000
0.948120 0.493835 0.003540
0.973572 0.491821 0.004059
0.993805 0.503357 0.000000
1.000000 0.503601 0.000000
0.000000 0.463013 0.153076
0.001892 0.461121 0.153076
0.001892 0.457336 0.151184
0.001892 0.461121 0.151184
0.000000 0.459595 0.149658
0.001404 0.456573 0.152588
0.003937 0.457184 0.158905
0.004059 0.455292 0.156982
0.001007 0.459076 0.149292
0.000000 0.470856 0.144989
0.034485 0.477295 0.133606
0.129364 0.489960 0.118317
0.196808 0.496918 0.101837
0.261963 0.511566 0.072662
0.325958 0.519684 0.025482
0.389587 0.533478 0.000397
0.455170 0.543457 0.000000
0.524994 0.555603 0.000000
0.598999 0.571533 0.000000
0.677063 0.598755 0.003540
0.718048 0.592560 0.003418
0.751190 0.585968 0.004059
0.780518 0.577118 0.000763
0.810760 0.570038 0.000000
0.845306 0.563080 0.000000
0.875397 0.551300 0.001526
0.901459 0.549408 0.000000
0.925354 0.541565 0.001404
0.952698 0.530945 0.000000
0.979126 0.521851 0.001648
0.999634 0.525513 0.004059
1.000000 0.529694 0.002014
0.002167 0.496643 0.171539
0.002014 0.498688 0.170654
0.000244 0.496643 0.169373
0.005707 0.496674 0.176849
0.000000 0.497040 0.169006
0.000000 0.498810 0.175079
0.000000 0.498810 0.177246
0.001770 0.496155 0.176361
0.000000 0.494263 0.178772
0.001770 0.500458 0.169647
0.014771 0.506653 0.162048
0.111542 0.517273 0.154480
0.186432 0.529541 0.132202
0.248566 0.539551 0.107300
0.311798 0.548035 0.086426
0.373138 0.559540 0.046967
0.437347 0.569519 0.000122
0.499207 0.581177 0.001770
0.568115 0.593048 0.001648
0.630737 0.609131 0.002411
0.715240 0.626068 0.003143
0.756500 0.627716 0.001251
0.784088 0.619110 0.000000
0.814545 0.614685 0.004303
0.847443 0.606842 0.003052
0.874390 0.597992 0.000000
0.895508 0.587860 0.001129
0.926117 0.582825 0.004303
0.953583 0.574463 0.001770
0.976227 0.567871 0.000519
0.995819 0.565338 0.002167
1.000000 0.561554 0.001770
0.000000 0.534607 0.191162
0.000000 0.532318 0.188873
0.000000 0.534607 0.191162
0.000000 0.534607 0.191162
0.000000 0.534607 0.185822
0.004547 0.534607 0.191162
0.000000 0.534607 0.199005
0.000000 0.533203 0.193054
0.001007 0.528412 0.193817
0.002777 0.530670 0.197845
0.011108 0.543732 0.182678
0.101562 0.549408 0.177246
0.178467 0.554962 0.167511
0.236664 0.569275 0.145386
0.302582 0.577362 0.128296
0.358093 0.587860 0.109192
0.418732 0.597107 0.065430
0.483124 0.609009 0.016815
0.543091 0.615326 0.000000
0.608368 0.628845 0.000000
0.667694 0.635315 0.000519
0.739532 0.658569 0.000000
0.791534 0.664642 0.000000
0.822784 0.653900 0.000000
0.841248 0.648346 0.000000
0.873871 0.638855 0.002289
0.904358 0.630371 0.005585
0.921204 0.620880 0.000000
0.951813 0.616089 0.002289
0.977997 0.607727 0.001404
0.999634 0.602051 0.005432
1.000000 0.597992 0.001648
0.002411 0.570404 0.215057
0.003937 0.570404 0.215057
0.003937 0.570404 0.215057
0.005951 0.572449 0.217102
0.005432 0.568909 0.218079
0.003937 0.570404 0.215057
0.003937 0.570404 0.219879
0.003937 0.568909 0.222900
0.003937 0.568909 0.222900
0.002655 0.568665 0.221405
0.027679 0.573181 0.213440
0.112946 0.578125 0.209137
0.177094 0.588501 0.192413
0.236542 0.597229 0.186127
0.296875 0.603302 0.172943
0.346710 0.615967 0.150299
0.406219 0.624542 0.128021
0.462769 0.632019 0.098816
0.525757 0.640869 0.056335
0.579773 0.651245 0.000000
0.638336 0.656799 0.000000
0.698181 0.666534 0.000244
0.767120 0.686401 0.004303
0.817078 0.696777 0.001007
0.842010 0.690460 0.002411
0.870728 0.681854 0.001526
0.900055 0.668182 0.004822
0.928894 0.662506 0.004425
0.947876 0.659088 0.000000
0.975708 0.648712 0.000000
0.998108 0.644928 0.006195
1.000000 0.639496 0.000000
0.001404 0.608734 0.236206
0.001404 0.606720 0.235168
0.000244 0.606201 0.244049
0.004303 0.606598 0.244415
0.005951 0.608246 0.233154
0.003296 0.606842 0.238983
0.000000 0.603424 0.245422
0.000000 0.606476 0.247955
0.001526 0.601898 0.247955
0.004547 0.599762 0.245422
0.061859 0.599640 0.252136
0.135864 0.608978 0.235962
0.194550 0.614166 0.220764
0.249329 0.622650 0.215179
0.296875 0.632904 0.204193
0.349762 0.644775 0.194336
0.395844 0.647461 0.174713
0.457062 0.660339 0.157379
0.511230 0.666412 0.128540
0.563690 0.674133 0.097809
0.619598 0.683258 0.039612
0.671112 0.688690 0.000000
0.725891 0.696899 0.002533
0.789490 0.710693 0.000763
0.842377 0.727264 0.001892
0.874756 0.718170 0.003174
0.901215 0.709442 0.000000
0.924591 0.703369 0.000885
0.950806 0.693481 0.000000
0.972931 0.688568 0.004791
0.990753 0.679443 0.000244
0.997223 0.674255 0.002533
0.006592 0.640747 0.262878
0.001251 0.643280 0.263123
0.001251 0.640503 0.270721
0.001251 0.640747 0.273376
0.001251 0.640625 0.271973
0.003937 0.635437 0.268188
0.005310 0.639343 0.273376
0.005310 0.639343 0.270721
0.003296 0.639740 0.275665
0.041504 0.638458 0.271118
0.121582 0.631378 0.274384
0.169128 0.638092 0.264160
0.219482 0.644409 0.266815
0.261841 0.654022 0.258698
0.305603 0.659821 0.250610
0.358368 0.670105 0.235443
0.401031 0.674774 0.222412
0.449982 0.681213 0.209991
0.500336 0.689056 0.183319
0.550537 0.700317 0.169159
0.600647 0.707153 0.136261
0.653778 0.713867 0.107544
0.704254 0.719299 0.040375
0.750275 0.724854 0.000000
0.812775 0.741699 0.000000
0.864655 0.755737 0.002655
0.898804 0.750549 0.004547
0.921814 0.739288 0.000000
0.946106 0.733459 0.000000
0.974457 0.721954 0.000000
0.999634 0.719421 0.002777
1.000000 0.712585 0.000000
0.003937 0.669952 0.294617
0.002411 0.673889 0.296143
0.002777 0.672760 0.302979
0.000000 0.669952 0.300201
0.005066 0.671112 0.301331
0.002258 0.671722 0.301331
0.001129 0.672760 0.298676
0.013275 0.669708 0.297424
0.069214 0.668823 0.306396
0.124359 0.664917 0.304749
0.170776 0.664520 0.304993
0.207733 0.663269 0.308929
0.244659 0.673889 0.297943
0.279297 0.680573 0.290710
0.329163 0.682861 0.290588
0.362915 0.691711 0.272888
0.405823 0.700592 0.269836
0.453278 0.705750 0.256165
0.496033 0.711456 0.237335
0.536255 0.718170 0.220886
0.584961 0.723724 0.204956
0.641388 0.732574 0.183929
0.685638 0.741058 0.152313
0.726135 0.745850 0.117157
0.780518 0.748657 0.042145
0.831757 0.765961 0.000000
0.887146 0.775330 0.000519
0.925110 0.779633 0.001129
0.944733 0.769135 0.000000
0.968994 0.760406 0.000000
0.988861 0.756226 0.001007
0.994415 0.751190 0.001129
0.001007 0.698944 0.329285
0.001007 0.699188 0.329407
0.000000 0.705750 0.332214
0.000000 0.705750 0.332214
0.000519 0.707672 0.332214
0.029114 0.703491 0.335236
0.068085 0.698669 0.334991
0.123749 0.700836 0.338013
0.158661 0.702728 0.340057
0.188751 0.697784 0.339294
0.225433 0.694000 0.339783
0.253021 0.693634 0.335236
0.279449 0.701843 0.341949
0.316254 0.705750 0.330200
0.345215 0.706787 0.322449
0.385834 0.718536 0.316528
0.419739 0.722595 0.310699
0.458069 0.729553 0.303619
0.499969 0.735504 0.285126
0.543457 0.744476 0.278320
0.577240 0.748138 0.265289
0.625824 0.756744 0.247192
0.672638 0.760529 0.220764
0.711700 0.761688 0.198761
0.759399 0.768768 0.170685
0.805054 0.774689 0.123108
0.858459 0.787994 0.040131
0.907410 0.808228 0.000000
0.944336 0.804443 0.000000
0.968109 0.796478 0.002899
0.985077 0.789001 0.002899
1.000000 0.787109 0.000000
0.075958 0.730682 0.365967
0.080872 0.727783 0.366089
0.093018 0.733459 0.372925
0.111237 0.729279 0.375458
0.132355 0.730682 0.377625
0.150940 0.729797 0.372681
0.175842 0.729797 0.372803
0.197723 0.730682 0.369019
0.222534 0.726898 0.374084
0.242889 0.729797 0.374847
0.266907 0.729797 0.378113
0.292206 0.726746 0.381531
0.315369 0.729156 0.379913
0.348114 0.731812 0.378510
0.367371 0.738129 0.368530
0.398224 0.743591 0.357391
0.435822 0.748383 0.351562
0.470490 0.754211 0.346375
0.500061 0.761169 0.339142
0.537537 0.767487 0.328033
0.577881 0.773315 0.316650
0.620758 0.775574 0.297546
0.660736 0.774689 0.287292
0.702606 0.787476 0.262756
0.734589 0.793427 0.235687
0.787598 0.799744 0.214569
0.825684 0.800903 0.171173
0.875885 0.807709 0.139679
0.925354 0.826691 0.060760
0.960266 0.836182 0.006073
0.985443 0.826324 0.047089
1.000000 0.822144 0.047821
0.197235 0.758514 0.415955
0.198883 0.758514 0.415070
0.206085 0.761414 0.418213
0.211639 0.758881 0.413025
0.224304 0.755859 0.412415
0.234283 0.757751 0.410126
0.250366 0.754578 0.414185
0.266296 0.759399 0.418854
0.285156 0.754578 0.418610
0.304871 0.757751 0.418365
0.313477 0.759277 0.415833
0.342560 0.756744 0.421875
0.361542 0.760284 0.426971
0.378998 0.755341 0.416565
0.403015 0.761047 0.416565
0.428314 0.764465 0.408478
0.452911 0.771027 0.405182
0.483368 0.774597 0.394684
0.518158 0.782043 0.390015
0.544464 0.785950 0.378113
0.581177 0.793793 0.374969
0.616699 0.794556 0.351685
0.654266 0.804047 0.337402
0.694244 0.805573 0.326263
0.729675 0.812531 0.305267
0.770264 0.817322 0.288818
0.809357 0.821381 0.257812
0.852875 0.829346 0.235321
0.892853 0.833008 0.196716
0.942932 0.853638 0.137024
0.977478 0.860474 0.114624
1.000000 0.855804 0.127136
0.282623 0.789642 0.454407
0.280853 0.786224 0.451752
0.291107 0.785706 0.455048
0.296265 0.782410 0.455658
0.298035 0.789124 0.458313
0.303497 0.785706 0.457703
0.316650 0.784943 0.461609
0.333984 0.783295 0.465271
0.337128 0.783417 0.460602
0.355347 0.789001 0.467194
0.365326 0.783691 0.458954
0.389893 0.787598 0.461487
0.402008 0.780914 0.467682
0.418091 0.784058 0.467438
0.440216 0.785706 0.467682
0.461975 0.790253 0.460358
0.482635 0.792908 0.454407
0.507172 0.798096 0.441742
0.537262 0.805939 0.440369
0.562561 0.805939 0.430511
0.593048 0.816956 0.420990
0.625061 0.818359 0.413940
0.653778 0.825043 0.400635
0.686157 0.832397 0.386078
0.718903 0.834290 0.369781
0.757629 0.837189 0.346130
0.787598 0.844543 0.335480
0.820618 0.849731 0.308929
0.873871 0.852875 0.286926
0.910828 0.858307 0.242645
0.968506 0.869843 0.214691
1.000000 0.887665 0.180664
0.351807 0.813660 0.502838
0.352936 0.813782 0.503479
0.363068 0.813660 0.506775
0.364471 0.813293 0.506775
0.368500 0.810242 0.510681
0.376343 0.813171 0.509674
0.383423 0.811523 0.510956
0.391541 0.810760 0.513092
0.396088 0.813171 0.508301
0.412781 0.814178 0.514099
0.424164 0.812012 0.514374
0.436951 0.810242 0.519928
0.455902 0.811646 0.521332
0.466919 0.810242 0.520172
0.484497 0.808472 0.524872
0.497772 0.812286 0.517151
0.513855 0.818237 0.506775
