LUTSource/05 Hush.cube
#Created by: Byungjin (Chris) Choi
#Copyright: (C) Copyright 2026 Mellow
TITLE "Pastel"
#LUT size
LUT_3D_SIZE 5
#data domain
#LUT data points
DOMAIN_MIN 0.000000 0.000000 0.000000
DOMAIN_MAX 0.903226 0.903226 0.903226
0.031372 0.035309 0.043152
0.118530 0.038330 0.043152
0.371765 0.008240 0.016083
0.663025 0.000000 0.000000
0.911835 0.080841 0.000000
0.000885 0.113342 0.053619
0.123322 0.141663 0.030487
0.421997 0.158234 0.000000
0.701721 0.172150 0.004303
0.925629 0.234528 0.002136
0.000000 0.377472 0.119812
0.005188 0.378357 0.125977
0.373535 0.465515 0.007843
0.745728 0.488647 0.000000
0.945740 0.461578 0.009247
0.006592 0.640747 0.262878
0.005310 0.639343 0.270721
0.305603 0.659821 0.250610
0.653778 0.713867 0.107544
0.946106 0.733459 0.000000
0.420502 0.837708 0.554199
0.447815 0.838074 0.555847
0.523987 0.841614 0.578125
0.649475 0.868195 0.534210
0.838074 0.896515 0.436188
0.025696 0.031372 0.143829
0.145599 0.022247 0.143829
0.395813 0.002167 0.143829
0.675537 0.000000 0.152924
0.908661 0.103485 0.150909
0.010010 0.147736 0.156464
0.168243 0.161285 0.180878
0.436279 0.166962 0.166962
0.702972 0.182281 0.154694
0.916870 0.247192 0.146484
0.030609 0.419342 0.255005
0.119904 0.417938 0.237549
0.409729 0.473358 0.185699
0.746643 0.478516 0.129913
0.940918 0.466766 0.136475
0.064270 0.655914 0.359650
0.195435 0.651123 0.355713
0.376221 0.661621 0.354462
0.668182 0.712585 0.282104
0.942932 0.730957 0.203156
0.459595 0.842896 0.595459
0.490570 0.842499 0.600006
0.554596 0.840240 0.611267
0.666046 0.862885 0.587341
0.842377 0.896515 0.512329
0.003937 0.040985 0.418823
0.214020 0.026581 0.433258
0.495117 0.003937 0.441986
0.722595 0.085144 0.406189
0.936493 0.110657 0.381012
0.000000 0.202637 0.437683
0.210999 0.200500 0.450195
0.511688 0.232361 0.458038
0.730957 0.270691 0.427185
0.932587 0.252472 0.393280
0.004303 0.471588 0.461578
0.244629 0.478546 0.463348
0.510406 0.501190 0.487274
0.733093 0.494232 0.461945
0.922211 0.500427 0.449432
0.413300 0.685150 0.571411
0.468567 0.683868 0.575836
0.530029 0.679443 0.562286
0.705658 0.716522 0.533966
0.937012 0.715271 0.499542
0.590240 0.849457 0.712189
0.589233 0.851624 0.704346
0.619476 0.849854 0.696136
0.697784 0.862122 0.693115
0.857697 0.896912 0.658691
0.000000 0.109924 0.720428
0.281708 0.116516 0.727539
0.571381 0.173553 0.734863
0.798859 0.274780 0.743958
0.927887 0.380280 0.694122
0.031921 0.263763 0.724854
0.294250 0.276398 0.732208
0.571411 0.325226 0.738800
0.787994 0.397614 0.744354
0.920807 0.465149 0.707397
0.004425 0.512939 0.724854
0.265167 0.518250 0.731812
0.554443 0.540405 0.743591
0.772675 0.586578 0.757507
0.908142 0.611511 0.739655
0.392303 0.717773 0.741302
0.461243 0.716888 0.748260
0.601898 0.720428 0.750916
0.760925 0.732208 0.767365
0.903717 0.713470 0.735748
0.645538 0.866425 0.812897
0.663757 0.867676 0.812408
0.718658 0.870331 0.818481
0.761414 0.868195 0.809357
0.879944 0.896393 0.796204
0.393433 0.331055 0.920441
0.480957 0.355469 0.924866
0.646912 0.411255 0.920044
0.827576 0.502716 0.915100
0.960022 0.574951 0.917267
0.423920 0.431641 0.923462
0.494385 0.451233 0.920807
0.656036 0.490448 0.919037
0.821899 0.562805 0.915985
0.957367 0.616699 0.919922
0.458313 0.600250 0.917908
0.510559 0.597961 0.913483
0.655548 0.624146 0.918304
0.824158 0.666016 0.917755
0.944336 0.702576 0.917267
0.465668 0.744843 0.914368
0.506134 0.745728 0.910065
0.612915 0.744843 0.908661
0.793182 0.761810 0.916504
0.936890 0.798859 0.924744
0.622772 0.886261 0.909424
0.653015 0.892975 0.912598
0.709045 0.893372 0.920807
0.802795 0.897400 0.919159
0.921204 0.912201 0.932190
