Mellow/DevAssets/06 Winter.cube
#Created by: Byungjin (Chris) Choi
#Copyright: (C) Copyright 2026 Mellow
TITLE "Winter"
#LUT size
LUT_3D_SIZE 32
#data domain
DOMAIN_MIN 0.0 0.0 0.0
DOMAIN_MAX 1.0 1.0 1.0
#LUT data points
0.019623 0.054901 0.074524
0.015686 0.058838 0.074524
0.015930 0.059082 0.074768
0.015686 0.058838 0.074524
0.012268 0.054382 0.070587
0.033264 0.061493 0.074524
0.063354 0.054901 0.076019
0.098938 0.054016 0.084503
0.127502 0.050995 0.075531
0.155823 0.045929 0.083496
0.194672 0.032623 0.085022
0.221252 0.032501 0.078430
0.259186 0.018097 0.081451
0.295746 0.014038 0.088562
0.328644 0.010010 0.082733
0.370117 0.005951 0.084381
0.396362 0.000000 0.076416
0.440399 0.000000 0.078827
0.478088 0.000000 0.080719
0.525757 0.002411 0.087158
0.566742 0.000000 0.074524
0.609375 0.000000 0.074524
0.654266 0.000000 0.066681
0.696899 0.000000 0.055908
0.751556 0.000000 0.050995
0.805695 0.000000 0.039978
0.855042 0.007202 0.021515
0.907288 0.018585 0.015167
0.954224 0.064758 0.000000
0.995056 0.104858 0.000000
1.000000 0.152069 0.000000
1.000000 0.184326 0.003937
0.019470 0.055023 0.074524
0.019470 0.055023 0.074524
0.015808 0.058960 0.074646
0.015686 0.058838 0.074524
0.012909 0.055542 0.070221
0.041473 0.058319 0.074646
0.066528 0.055023 0.075775
0.100433 0.054016 0.078430
0.129913 0.050995 0.076660
0.161407 0.048706 0.078430
0.193298 0.039612 0.082489
0.226440 0.027588 0.076019
0.260315 0.022278 0.083862
0.296112 0.019867 0.078552
0.330536 0.019989 0.080719
0.372162 0.019745 0.084259
0.404480 0.013916 0.078552
0.444061 0.008087 0.084137
0.487061 0.002136 0.081573
0.529541 0.002014 0.072113
0.566742 0.000366 0.069458
0.612030 0.002777 0.069061
0.652252 0.000244 0.060211
0.700958 0.004059 0.054138
0.754608 0.003296 0.047821
0.806458 0.008362 0.028961
0.861603 0.021881 0.012268
0.914124 0.045929 0.011017
0.955231 0.077301 0.000000
0.991913 0.124237 0.000000
0.996216 0.152679 0.003784
1.000000 0.192291 0.000122
0.019348 0.055145 0.074524
0.015686 0.058838 0.074524
0.019348 0.055145 0.074524
0.019226 0.055267 0.074524
0.020111 0.055145 0.074249
0.035400 0.061859 0.074524
0.077545 0.055420 0.078674
0.107635 0.053650 0.081726
0.128784 0.050232 0.075775
0.166992 0.046417 0.078186
0.190887 0.039734 0.078430
0.227936 0.036926 0.082092
0.266388 0.038208 0.083618
0.296753 0.032135 0.080078
0.340912 0.027954 0.082367
0.370789 0.029999 0.082092
0.410675 0.026062 0.078430
0.453674 0.026306 0.078430
0.487579 0.024292 0.072235
0.529938 0.018860 0.069580
0.569519 0.021759 0.068054
0.611786 0.020630 0.059326
0.659851 0.020355 0.056030
0.705261 0.017944 0.047821
0.757263 0.023407 0.047180
0.806702 0.030853 0.028717
0.862000 0.042877 0.009094
0.914124 0.065918 0.000000
0.962311 0.097656 0.000244
0.995819 0.132568 0.000519
0.999756 0.164581 0.000244
0.996063 0.200500 0.000244
0.015686 0.051727 0.070953
0.019226 0.055267 0.074524
0.019226 0.055267 0.074524
0.019226 0.055267 0.074524
0.014038 0.055664 0.070831
0.049591 0.058319 0.078430
0.081451 0.051361 0.078796
0.101318 0.055786 0.077179
0.132812 0.056030 0.077423
0.162537 0.052887 0.072876
0.196198 0.052124 0.077026
0.232635 0.048584 0.084137
0.264893 0.054138 0.076019
0.302704 0.049835 0.083252
0.339752 0.049957 0.077820
0.378601 0.048340 0.070953
0.416107 0.047821 0.076019
0.453949 0.046814 0.069183
0.493408 0.044647 0.071228
0.538025 0.040741 0.074646
0.577759 0.046417 0.070953
0.618225 0.046936 0.060730
0.667328 0.048584 0.055267
0.711578 0.049957 0.046692
0.762054 0.051605 0.032776
0.814301 0.059570 0.020752
0.867188 0.077667 0.008362
0.915375 0.086792 0.000366
0.969513 0.114105 0.003540
0.999237 0.145477 0.000641
0.996582 0.177094 0.000000
1.000000 0.212891 0.000763
0.010742 0.067688 0.077911
0.010620 0.067810 0.077911
0.010254 0.068176 0.077911
0.010254 0.068176 0.077911
0.016205 0.072113 0.075012
0.044891 0.075897 0.082214
0.080444 0.072113 0.074768
0.112091 0.072113 0.074127
0.141296 0.074524 0.077423
0.171387 0.072113 0.072876
0.198456 0.074249 0.073242
0.237305 0.069580 0.076263
0.272736 0.072113 0.076019
0.309021 0.070953 0.075653
0.344086 0.073364 0.074615
0.375824 0.070221 0.077911
0.422302 0.068695 0.079834
0.460144 0.070343 0.069580
0.496429 0.073730 0.067810
0.538544 0.077423 0.062225
0.576996 0.072601 0.062744
0.621643 0.076538 0.057312
0.676025 0.078796 0.047180
0.717529 0.080963 0.035797
0.766602 0.084381 0.022522
0.826080 0.093597 0.019348
0.871216 0.102203 0.001129
0.923462 0.118652 0.000519
0.967224 0.141174 0.003937
0.992676 0.169373 0.000244
0.999481 0.197205 0.003418
0.995575 0.229462 0.000000
0.003296 0.084259 0.075134
0.000000 0.087524 0.075134
0.000000 0.088165 0.075775
0.000000 0.088165 0.075775
0.001526 0.088287 0.068695
0.029358 0.094757 0.071838
0.068695 0.095367 0.067535
0.108276 0.096008 0.074890
0.137360 0.093353 0.074127
0.169769 0.092590 0.073242
0.213531 0.094757 0.076538
0.243378 0.096008 0.069214
0.276398 0.097534 0.074127
0.314331 0.095367 0.071228
0.350647 0.094238 0.072113
0.386566 0.094604 0.064636
0.422699 0.098541 0.075134
0.460876 0.099304 0.062347
0.501251 0.099945 0.061737
0.547760 0.101440 0.065521
0.586975 0.101196 0.061493
0.627716 0.106506 0.048462
0.678833 0.107269 0.035156
0.729553 0.109039 0.025543
0.779633 0.114746 0.013794
0.825562 0.119415 0.005432
0.876526 0.128021 0.003937
0.924225 0.143829 0.006714
0.974213 0.165070 0.001251
0.999115 0.189117 0.000641
0.999359 0.217072 0.003174
0.996063 0.253510 0.000641
0.000000 0.101837 0.075256
0.000000 0.108154 0.078430
0.003174 0.104736 0.078186
0.000000 0.108154 0.078430
0.000000 0.111328 0.079956
0.020477 0.111206 0.078430
0.050842 0.112091 0.070587
0.091339 0.119049 0.066803
0.133209 0.117767 0.071350
0.171143 0.119537 0.061981
0.212128 0.122070 0.067291
0.247040 0.115997 0.062103
0.285126 0.122314 0.064270
0.324738 0.121552 0.065155
0.352539 0.122070 0.058197
0.396423 0.123840 0.061859
0.435211 0.121948 0.065155
0.472137 0.124603 0.057800
0.507141 0.127777 0.051849
0.552307 0.134094 0.052643
0.593933 0.131042 0.041626
0.639099 0.135101 0.038208
0.686035 0.138397 0.029358
0.732697 0.145599 0.010376
0.782928 0.145599 0.000763
0.833008 0.151306 0.000763
0.882477 0.161804 0.005066
0.926880 0.177216 0.000000
0.972534 0.194061 0.000000
0.998749 0.214294 0.000000
0.999115 0.241119 0.000000
0.993683 0.273621 0.000000
0.000885 0.128143 0.074524
0.000885 0.128143 0.074524
0.000641 0.127899 0.074249
0.000885 0.131165 0.074524
0.000000 0.128510 0.082367
0.008850 0.128143 0.078674
0.041107 0.134979 0.076904
0.085388 0.133820 0.075378
0.127777 0.139008 0.070465
0.162292 0.141052 0.061859
0.198853 0.145081 0.063263
0.246429 0.147736 0.057953
0.284607 0.151031 0.057068
0.336700 0.149384 0.055298
0.365326 0.149017 0.053131
0.408447 0.150513 0.058960
0.443298 0.151398 0.052246
0.480988 0.153442 0.050995
0.518524 0.155579 0.045532
0.561310 0.159515 0.032654
0.602173 0.164307 0.025696
0.648224 0.166107 0.017334
0.694885 0.167114 0.008087
0.743835 0.168243 0.000000
0.792542 0.176483 0.000000
0.842651 0.184570 0.001770
0.889709 0.195068 0.002411
0.931702 0.204803 0.000000
0.981171 0.222015 0.005310
1.000000 0.244141 0.003937
0.996216 0.268066 0.002899
0.995209 0.297638 0.003937
0.003937 0.151031 0.077423
0.003937 0.151031 0.077423
0.001007 0.148132 0.074524
0.001007 0.148132 0.074524
0.000519 0.150543 0.087677
0.003937 0.151031 0.078186
0.022400 0.152313 0.073761
0.067291 0.156860 0.077301
0.105988 0.159882 0.065643
0.150421 0.161041 0.060333
0.189880 0.171906 0.055145
0.239960 0.171661 0.055786
0.277161 0.180908 0.052368
0.328400 0.183807 0.046417
0.367096 0.182678 0.034668
0.417419 0.186584 0.035187
0.452393 0.187347 0.031250
0.492401 0.187225 0.025177
0.535248 0.190002 0.027954
0.576752 0.190765 0.016968
0.612396 0.195190 0.009735
0.657196 0.197205 0.005188
0.709045 0.199982 0.001770
0.756744 0.205048 0.000000
0.802521 0.207092 0.005951
0.849609 0.212891 0.000000
0.894623 0.224670 0.002289
0.936737 0.234894 0.000000
0.982666 0.254883 0.001007
0.996063 0.269958 0.000000
1.000000 0.293854 0.001007
1.000000 0.320679 0.000000
0.001129 0.175964 0.074524
0.001129 0.175964 0.074524
0.001129 0.175964 0.074524
0.001129 0.175964 0.074524
0.000000 0.172546 0.087280
0.000000 0.175964 0.078949
0.014038 0.181519 0.074890
0.058197 0.176849 0.080200
0.093597 0.185577 0.070587
0.136749 0.191650 0.058838
0.185699 0.190247 0.051117
0.227295 0.200897 0.046936
0.267548 0.203400 0.036957
0.309418 0.208588 0.037079
0.363159 0.206299 0.030243
0.402130 0.216309 0.024933
0.459015 0.216309 0.012756
0.502655 0.221252 0.006317
0.547516 0.224152 0.002777
0.587982 0.226929 0.001526
0.633148 0.226685 0.000000
0.674255 0.229218 0.000000
0.719299 0.231995 0.001129
0.765991 0.236053 0.000000
0.816193 0.241241 0.002258
0.859344 0.248199 0.000000
0.906006 0.259705 0.000000
0.945343 0.270721 0.000000
0.985443 0.283722 0.000000
0.997467 0.298401 0.001404
0.997345 0.324585 0.000122
0.996063 0.352417 0.000000
0.000000 0.201141 0.081085
0.000000 0.201141 0.081085
0.000000 0.201141 0.081085
0.000000 0.201141 0.081085
0.001007 0.199860 0.080322
0.001892 0.200500 0.084259
0.000000 0.201141 0.082092
0.038940 0.202026 0.076508
0.090454 0.211121 0.074005
0.127136 0.206299 0.066528
0.171021 0.216827 0.062744
0.214935 0.220978 0.044159
0.261475 0.229828 0.036194
0.303345 0.236420 0.017975
0.348755 0.242126 0.026184
0.394409 0.245667 0.010651
0.444214 0.246307 0.000000
0.496338 0.250854 0.001251
0.549683 0.252106 0.003296
0.602661 0.259949 0.000000
0.645172 0.259949 0.001251
0.687683 0.266541 0.001251
0.731323 0.264008 0.002655
0.777252 0.270325 0.000000
0.821625 0.279938 0.002655
0.868561 0.280823 0.000000
0.912476 0.293976 0.003296
0.954834 0.304749 0.002655
0.996216 0.319275 0.004791
1.000000 0.337616 0.000244
0.998596 0.357605 0.000000
1.000000 0.378876 0.000000
0.000000 0.229095 0.086273
0.000000 0.230347 0.087524
0.002533 0.229095 0.086273
0.002899 0.229095 0.086639
0.005188 0.226562 0.089447
0.000000 0.228333 0.091339
0.000000 0.230225 0.086273
0.014923 0.228577 0.084259
0.066925 0.236176 0.083740
0.120056 0.233246 0.071106
0.164215 0.240845 0.066681
0.201630 0.248688 0.052612
0.242615 0.254242 0.052124
0.293091 0.258423 0.027191
0.341156 0.269684 0.016083
0.387604 0.265381 0.002014
0.430420 0.272858 0.002777
0.482910 0.278687 0.000000
0.538696 0.287018 0.000885
0.595978 0.293213 0.000000
0.647705 0.295502 0.000000
0.700958 0.301056 0.000000
0.751434 0.302460 0.002533
0.797974 0.307373 0.000000
0.834534 0.314484 0.000000
0.884888 0.321289 0.000000
0.924347 0.329773 0.001404
0.960144 0.340424 0.000000
0.994934 0.355591 0.000366
1.000000 0.373413 0.001648
1.000000 0.389496 0.000122
1.000000 0.409485 0.000000
0.000000 0.260956 0.090210
0.000000 0.260956 0.090210
0.000000 0.260956 0.090210
0.000000 0.258545 0.087799
0.000519 0.260834 0.089172
0.000641 0.261597 0.092987
0.000763 0.257050 0.089294
0.006317 0.251617 0.081451
0.049591 0.257050 0.092224
0.107391 0.263000 0.088562
0.154327 0.266144 0.076660
0.193542 0.268555 0.063751
0.237427 0.278168 0.062134
0.278290 0.280060 0.042877
0.334076 0.288025 0.025818
0.374786 0.295105 0.003021
0.422974 0.302582 0.000000
0.475067 0.310425 0.000000
0.529846 0.315125 0.001648
0.579803 0.320679 0.000000
0.638245 0.326752 0.001526
0.694031 0.334198 0.000000
0.751556 0.342194 0.002655
0.804199 0.347229 0.005432
0.849579 0.349396 0.002411
0.894257 0.359772 0.000000
0.936493 0.369507 0.001526
0.973053 0.375702 0.000000
0.996460 0.393524 0.002014
1.000000 0.407074 0.001526
0.999878 0.426819 0.002289
0.997589 0.442871 0.001526
0.000000 0.295105 0.098053
0.002289 0.292847 0.098053
0.000000 0.290314 0.095520
0.000000 0.288910 0.094116
0.002289 0.291199 0.096405
0.003296 0.288910 0.098053
0.000000 0.287262 0.097412
0.003052 0.281830 0.094238
0.023407 0.278412 0.093109
0.086395 0.289062 0.096405
0.136871 0.295105 0.086639
0.174683 0.298523 0.073608
0.225677 0.304230 0.065643
0.274231 0.308533 0.054901
0.313080 0.312561 0.031006
0.370361 0.316620 0.010132
0.412842 0.326874 0.000000
0.466217 0.334351 0.001770
0.520233 0.342194 0.002289
0.573456 0.346100 0.004669
0.625000 0.356720 0.000000
0.685303 0.367737 0.004303
0.746124 0.372925 0.003296
0.799133 0.382019 0.002899
0.852112 0.388611 0.000000
0.902985 0.398071 0.000000
0.945465 0.409210 0.004547
0.983429 0.417175 0.002289
1.000000 0.433014 0.000000
0.996704 0.448425 0.002014
1.000000 0.464996 0.002289
1.000000 0.480438 0.004547
0.002167 0.319031 0.101562
0.000000 0.319031 0.101562
0.002167 0.319031 0.101562
0.000000 0.316864 0.099426
0.000000 0.322449 0.096252
0.000000 0.316254 0.095245
0.000000 0.316864 0.103729
0.000000 0.313843 0.102844
0.004791 0.313324 0.105255
0.065277 0.312958 0.102966
0.121674 0.315094 0.091583
0.167480 0.320404 0.084503
0.214661 0.327271 0.079834
0.257172 0.330780 0.055267
0.303741 0.340393 0.048828
0.345062 0.342682 0.019989
0.402832 0.352417 0.007568
0.451172 0.362152 0.003540
0.502533 0.370148 0.003296
0.556030 0.380890 0.000641
0.617126 0.386078 0.001404
0.678345 0.397583 0.001770
0.735413 0.403778 0.000000
0.792694 0.416046 0.004669
0.847839 0.422760 0.001770
0.899963 0.435150 0.000000
0.949554 0.448059 0.003296
0.990143 0.460693 0.002167
0.999634 0.471191 0.002167
0.992676 0.486725 0.000000
0.995697 0.502533 0.002167
1.000000 0.514679 0.003937
0.001892 0.348755 0.109680
0.005951 0.348755 0.111694
0.000000 0.346863 0.107788
0.000000 0.346863 0.107788
0.000000 0.348877 0.107788
0.002014 0.346710 0.107788
0.000000 0.343933 0.105743
0.001007 0.340027 0.104858
0.002014 0.342041 0.105896
0.033142 0.339020 0.108917
0.107635 0.340912 0.108398
0.159515 0.342926 0.094635
0.201904 0.351776 0.088287
0.244904 0.360016 0.078674
0.298767 0.358490 0.063507
0.335083 0.368225 0.043152
0.390839 0.376343 0.015686
0.440399 0.386322 0.001770
0.488739 0.394562 0.000000
0.548828 0.404175 0.001892
0.604095 0.414032 0.000000
0.665710 0.429840 0.001526
0.725403 0.435791 0.001892
0.782227 0.445770 0.000000
0.839874 0.458679 0.004944
0.892883 0.468811 0.000000
0.943329 0.484741 0.000641
0.987610 0.501678 0.005066
0.999634 0.513062 0.001648
0.996338 0.522675 0.000000
0.997986 0.536957 0.007599
1.000000 0.552521 0.005951
0.002014 0.378662 0.113739
0.002014 0.378662 0.113739
0.002014 0.378662 0.113739
0.005829 0.376770 0.113739
0.003784 0.378296 0.105377
0.005188 0.376129 0.110291
0.003174 0.373352 0.114105
0.001892 0.372833 0.113586
0.003937 0.370819 0.113861
0.005676 0.367554 0.101837
0.085846 0.367523 0.114502
0.143005 0.368927 0.102234
0.187195 0.375702 0.089081
0.240417 0.380310 0.086029
0.281036 0.391632 0.076538
0.326965 0.394348 0.053436
0.378662 0.398285 0.029602
0.426361 0.408539 0.009613
0.480377 0.418518 0.001892
0.534882 0.430389 0.002014
0.595825 0.440643 0.002411
0.657684 0.452667 0.003143
0.719055 0.465454 0.000763
0.779144 0.480621 0.000000
0.835938 0.490631 0.002014
0.881744 0.506683 0.000000
0.934113 0.520569 0.000641
0.981293 0.539917 0.003418
0.998871 0.550934 0.003021
0.997986 0.564606 0.000000
0.997986 0.580536 0.000000
0.997986 0.598389 0.000000
0.000000 0.408661 0.118042
0.000000 0.408661 0.118042
0.000000 0.408661 0.118042
0.000000 0.408661 0.118042
0.000000 0.412170 0.116394
0.003937 0.408264 0.115875
0.002167 0.406494 0.115875
0.000000 0.406494 0.115875
0.000000 0.401550 0.121704
0.001129 0.400421 0.116516
0.061523 0.392975 0.117767
0.124176 0.393341 0.116516
0.180328 0.399536 0.105011
0.219421 0.408112 0.097137
0.273315 0.413940 0.086670
0.315460 0.420135 0.069244
0.365143 0.426086 0.051239
0.414734 0.440033 0.020996
0.466461 0.444580 0.000000
0.520813 0.455719 0.004303
0.580292 0.468231 0.005676
0.642639 0.482910 0.001770
0.706390 0.496582 0.001129
0.766235 0.512512 0.000000
0.820892 0.525391 0.003937
0.879211 0.541443 0.003174
0.926758 0.559662 0.004303
0.970795 0.572327 0.002167
0.999237 0.588623 0.006836
0.998474 0.603058 0.001770
0.996216 0.617981 0.000244
0.998230 0.632141 0.000000
0.003296 0.442810 0.125488
0.001648 0.441162 0.123840
0.001648 0.441162 0.123840
0.001648 0.441162 0.123840
0.005554 0.436981 0.122711
0.001648 0.442810 0.119293
0.004028 0.435852 0.121582
0.002289 0.432678 0.119934
0.000000 0.435577 0.118927
0.000000 0.432678 0.122192
0.020844 0.428375 0.116394
0.113159 0.425720 0.117645
0.169952 0.427856 0.114349
0.210205 0.436951 0.103241
0.264832 0.441223 0.095764
0.313171 0.446075 0.086273
0.355011 0.455963 0.061371
0.408661 0.463531 0.033020
0.461395 0.471893 0.004547
0.517914 0.479980 0.002289
0.571686 0.494049 0.000244
0.629730 0.511505 0.006195
0.693878 0.524994 0.000519
0.755341 0.545380 0.001648
0.808105 0.560303 0.000763
0.868439 0.576233 0.000000
0.914490 0.591797 0.000000
0.963837 0.609253 0.003418
0.991394 0.624054 0.000000
0.996338 0.639740 0.002289
0.996857 0.652008 0.002289
0.997711 0.669586 0.000000
0.000000 0.480255 0.123962
0.000000 0.480255 0.123962
0.000000 0.480499 0.124237
0.000000 0.479248 0.124481
0.000000 0.474792 0.121674
0.000000 0.474792 0.125488
0.000000 0.474792 0.125488
0.000000 0.471527 0.120056
0.002411 0.470001 0.121582
0.002655 0.465698 0.122711
0.004028 0.467346 0.118530
0.082031 0.461639 0.121948
0.157196 0.459106 0.122467
0.208923 0.462402 0.110687
0.252808 0.466339 0.101471
0.304932 0.476837 0.089691
0.353516 0.483795 0.075256
0.402710 0.497833 0.044128
0.455200 0.506195 0.015167
0.505554 0.517914 0.002411
0.564209 0.525879 0.007233
0.612549 0.538025 0.000000
0.680450 0.555481 0.002655
0.742462 0.576752 0.003937
0.796844 0.593689 0.000641
0.851868 0.611267 0.000000
0.903595 0.631012 0.001770
0.953949 0.644409 0.001007
0.988983 0.659485 0.001526
0.998749 0.677063 0.000244
0.999878 0.693115 0.000122
0.998474 0.706146 0.000000
0.000000 0.518585 0.124115
0.000000 0.520050 0.125610
0.001404 0.517151 0.124115
0.001404 0.519348 0.126251
0.001404 0.517700 0.127380
0.003174 0.515259 0.128784
0.000763 0.511505 0.128784
0.000885 0.511627 0.123840
0.003937 0.506775 0.122955
0.002533 0.509094 0.125488
0.001282 0.506683 0.126892
0.038361 0.497589 0.123199
0.135803 0.499603 0.126892
0.195038 0.501373 0.118530
0.241028 0.502258 0.106262
0.299133 0.513855 0.098785
0.349823 0.522003 0.081726
0.398651 0.535004 0.050598
0.449249 0.536774 0.019470
0.502014 0.552338 0.002533
0.556366 0.565613 0.002533
0.605591 0.577484 0.001251
0.667694 0.590790 0.002533
0.725128 0.606598 0.000366
0.789001 0.625061 0.000519
0.841248 0.647064 0.001404
0.896393 0.663757 0.003174
0.946869 0.679199 0.000000
0.984558 0.695648 0.001007
0.997467 0.707672 0.000244
1.000000 0.722351 0.005066
1.000000 0.740936 0.000000
0.001251 0.564972 0.126740
0.000000 0.563721 0.125488
0.001251 0.564972 0.126740
0.000000 0.563721 0.125488
0.004822 0.558899 0.125488
0.002014 0.560425 0.128021
0.000000 0.555878 0.124084
0.002655 0.553223 0.118774
0.000000 0.555878 0.120300
0.005066 0.549683 0.125763
0.005310 0.547882 0.118896
0.003784 0.547913 0.117523
0.102997 0.544098 0.118896
0.181213 0.543091 0.119141
0.235748 0.539673 0.111969
0.291168 0.551178 0.106659
0.337677 0.561066 0.082214
0.391937 0.572327 0.058563
0.446350 0.581177 0.023895
0.504547 0.589508 0.004181
0.551178 0.605194 0.000000
0.610779 0.617340 0.002655
0.661224 0.625458 0.002655
0.713104 0.635803 0.000000
0.773682 0.657715 0.000366
0.836578 0.678436 0.001251
0.891602 0.696289 0.004547
0.935486 0.711578 0.000000
0.977997 0.731445 0.002655
1.000000 0.748383 0.000000
1.000000 0.759277 0.003784
0.998749 0.774078 0.002655
0.001129 0.610016 0.126617
0.000000 0.610016 0.126617
0.000000 0.608856 0.125488
0.000000 0.608856 0.125488
0.007324 0.611145 0.130035
0.000000 0.605438 0.123962
0.000000 0.602905 0.123352
0.001892 0.607971 0.119049
0.001129 0.607727 0.118256
0.002777 0.601013 0.115997
0.002258 0.597107 0.118774
0.004181 0.598236 0.121307
0.045685 0.591675 0.118774
0.159302 0.590912 0.112579
0.226379 0.586365 0.113983
0.283203 0.597626 0.101105
0.340485 0.603058 0.088165
0.387268 0.614319 0.060944
0.444458 0.624695 0.024902
0.503143 0.635559 0.001526
0.556122 0.646698 0.002533
0.609619 0.663788 0.002655
0.662628 0.669342 0.001129
0.717285 0.678558 0.001251
0.766998 0.690338 0.000000
0.824799 0.708038 0.000366
0.879822 0.728149 0.000641
0.928009 0.749023 0.000000
0.968994 0.760925 0.001129
0.999756 0.776489 0.002258
1.000000 0.788361 0.001007
0.991028 0.808350 0.000000
0.004944 0.664520 0.124603
0.003937 0.663513 0.123596
0.003662 0.663513 0.121582
0.001007 0.663513 0.121582
0.000519 0.663025 0.126373
0.001648 0.657684 0.124481
0.002167 0.657440 0.119659
0.000000 0.659607 0.119659
0.003815 0.659607 0.116638
0.001129 0.656433 0.113739
0.001007 0.654022 0.116760
0.001404 0.650360 0.115753
0.011627 0.646820 0.117157
0.116516 0.648834 0.113464
0.210419 0.642273 0.110809
0.277985 0.643921 0.106903
0.333008 0.651886 0.091095
0.392975 0.662018 0.067291
0.447998 0.666809 0.030731
0.505035 0.676788 0.001526
0.557892 0.690582 0.000000
0.612030 0.705139 0.001007
0.669464 0.706543 0.002777
0.722351 0.715515 0.002899
0.763184 0.730438 0.000000
0.815308 0.740295 0.000763
0.868195 0.759399 0.005829
0.922455 0.778748 0.001007
0.963837 0.792053 0.000641
0.996582 0.803802 0.001526
1.000000 0.818359 0.000000
0.992157 0.837189 0.000000
0.000000 0.719299 0.119415
0.000000 0.719299 0.119415
0.000000 0.719299 0.119415
0.000000 0.719299 0.119415
0.000000 0.718811 0.118896
0.007202 0.714752 0.118774
0.005432 0.714508 0.117767
0.000000 0.720184 0.116760
0.002899 0.713470 0.114746
0.004700 0.712219 0.116272
0.004303 0.709320 0.121582
0.000000 0.710327 0.112946
0.001526 0.709076 0.111572
0.077301 0.705139 0.105255
0.213318 0.697540 0.114624
0.275085 0.700592 0.105133
0.334534 0.704620 0.096008
0.392456 0.713623 0.072845
0.455078 0.721588 0.038452
0.511627 0.730438 0.003662
0.567902 0.741455 0.000000
0.618988 0.749023 0.000000
0.673523 0.753204 0.002777
0.722473 0.766235 0.000122
0.771179 0.774200 0.000000
0.818115 0.781403 0.000122
0.866791 0.790649 0.006714
0.909790 0.800629 0.000763
0.958893 0.823669 0.000000
0.994446 0.839966 0.000000
0.999878 0.848206 0.007721
0.999115 0.864014 0.000000
0.003937 0.775848 0.131805
0.003937 0.775848 0.131805
0.003937 0.775848 0.131805
0.003174 0.775085 0.131073
0.000763 0.772186 0.121826
0.002136 0.772552 0.122955
0.000763 0.771179 0.121582
0.000000 0.778259 0.126495
0.000763 0.769257 0.118774
0.001129 0.773560 0.121948
0.002655 0.769897 0.120300
0.004181 0.767242 0.119049
0.004822 0.761810 0.120178
0.048645 0.768890 0.106140
0.200775 0.764709 0.116882
0.279388 0.760284 0.107910
0.348083 0.755493 0.100830
0.407898 0.765472 0.096771
0.468750 0.770294 0.068817
0.526825 0.782166 0.033783
0.575104 0.791534 0.004669
0.626953 0.794189 0.000763
0.684662 0.802155 0.000000
0.733093 0.806976 0.000000
0.779144 0.818115 0.000000
0.826813 0.826080 0.000000
0.861237 0.830231 0.000122
0.903107 0.842255 0.003174
0.951050 0.847961 0.000000
0.994568 0.867798 0.000000
0.999878 0.882355 0.006317
1.000000 0.891083 0.000000
0.000641 0.827576 0.143829
0.004547 0.831512 0.147766
0.000641 0.827576 0.143829
0.001007 0.827972 0.144226
0.003418 0.833649 0.140045
0.000641 0.830231 0.138519
0.000641 0.827576 0.143829
0.000000 0.829102 0.142059
0.007202 0.826324 0.143219
0.000000 0.826965 0.143219
0.000000 0.826965 0.143219
0.000641 0.829620 0.135376
0.000000 0.823914 0.140808
0.066986 0.821381 0.142303
0.222046 0.822632 0.136627
0.298737 0.820374 0.135864
0.371857 0.815826 0.129547
0.426636 0.824554 0.131317
0.487976 0.826324 0.114471
0.540222 0.830872 0.095123
0.604187 0.837952 0.065399
0.648712 0.845306 0.019470
0.701599 0.849335 0.000519
0.748901 0.854645 0.000000
0.794952 0.858704 0.000641
0.838593 0.862885 0.003784
0.871368 0.870728 0.003937
0.911713 0.881989 0.000000
0.950287 0.883118 0.000000
0.987610 0.891724 0.000366
1.000000 0.903748 0.004059
0.999359 0.919678 0.000000
0.000519 0.882751 0.185211
0.003418 0.885406 0.187988
0.003418 0.879822 0.185211
0.003418 0.879822 0.185211
0.003418 0.883240 0.178375
0.003418 0.882233 0.177856
0.003937 0.881989 0.179901
0.003418 0.879822 0.185211
0.004425 0.878815 0.187103
0.004944 0.879333 0.184204
0.000000 0.881104 0.183044
0.003418 0.879333 0.184692
0.023102 0.876404 0.174438
0.172729 0.877686 0.184692
0.271179 0.877045 0.172211
0.345551 0.878326 0.170013
0.412079 0.871979 0.178009
