Mellow/DevAssets/06 Winter.cube
#Created by: Byungjin (Chris) Choi
#Copyright: (C) Copyright 2026 Mellow
TITLE "Winter"
#LUT size
LUT_3D_SIZE 8
#data domain
#LUT data points
DOMAIN_MIN 0.000000 0.000000 0.000000
DOMAIN_MAX 0.903226 0.903226 0.903226
0.019623 0.054901 0.074524
0.012268 0.054382 0.070587
0.127502 0.050995 0.075531
0.259186 0.018097 0.081451
0.396362 0.000000 0.076416
0.566742 0.000000 0.074524
0.751556 0.000000 0.050995
0.954224 0.064758 0.000000
0.010742 0.067688 0.077911
0.016205 0.072113 0.075012
0.141296 0.074524 0.077423
0.272736 0.072113 0.076019
0.422302 0.068695 0.079834
0.576996 0.072601 0.062744
0.766602 0.084381 0.022522
0.967224 0.141174 0.003937
0.003937 0.151031 0.077423
0.000519 0.150543 0.087677
0.105988 0.159882 0.065643
0.277161 0.180908 0.052368
0.452393 0.187347 0.031250
0.612396 0.195190 0.009735
0.802521 0.207092 0.005951
0.982666 0.254883 0.001007
0.000000 0.260956 0.090210
0.000519 0.260834 0.089172
0.049591 0.257050 0.092224
0.237427 0.278168 0.062134
0.422974 0.302582 0.000000
0.638245 0.326752 0.001526
0.849579 0.349396 0.002411
0.996460 0.393524 0.002014
0.002014 0.378662 0.113739
0.003784 0.378296 0.105377
0.003937 0.370819 0.113861
0.187195 0.375702 0.089081
0.378662 0.398285 0.029602
0.595825 0.440643 0.002411
0.835938 0.490631 0.002014
0.998871 0.550934 0.003021
0.000000 0.518585 0.124115
0.001404 0.517700 0.127380
0.003937 0.506775 0.122955
0.135803 0.499603 0.126892
0.349823 0.522003 0.081726
0.556366 0.565613 0.002533
0.789001 0.625061 0.000519
0.984558 0.695648 0.001007
0.000000 0.719299 0.119415
0.000000 0.718811 0.118896
0.002899 0.713470 0.114746
0.001526 0.709076 0.111572
0.334534 0.704620 0.096008
0.567902 0.741455 0.000000
0.771179 0.774200 0.000000
0.958893 0.823669 0.000000
0.000763 0.931061 0.240112
0.007477 0.927124 0.239716
0.007080 0.927124 0.247559
0.180084 0.928802 0.238464
0.478363 0.925629 0.242126
0.672119 0.928528 0.236450
0.829865 0.939789 0.188354
0.966370 0.955353 0.061005
0.014160 0.058838 0.083862
0.017212 0.058319 0.077026
0.140289 0.049957 0.072113
0.263489 0.045044 0.080444
0.415253 0.037842 0.079956
0.575989 0.031372 0.066681
0.762329 0.020111 0.045166
0.966370 0.081207 0.000885
0.000519 0.076019 0.102478
0.025055 0.076019 0.099548
0.141815 0.090698 0.091705
0.288910 0.081970 0.088287
0.424591 0.094757 0.072998
0.588257 0.095642 0.052002
0.776978 0.101440 0.016571
0.971039 0.145477 0.001404
0.000519 0.160400 0.115753
0.000519 0.160889 0.112823
0.119293 0.168732 0.100555
0.286133 0.181519 0.090210
0.460785 0.189362 0.068054
0.620758 0.200104 0.027466
0.804565 0.212891 0.002899
0.985199 0.257935 0.001526
0.002899 0.273224 0.131439
0.003937 0.272217 0.131439
0.069702 0.268311 0.129028
0.250580 0.288422 0.101074
0.440674 0.309021 0.062225
0.655945 0.323334 0.002014
0.852631 0.350891 0.001404
0.996216 0.394409 0.000000
0.002014 0.391449 0.150391
0.000000 0.387512 0.142700
0.000000 0.380188 0.141296
0.198792 0.382935 0.131561
0.388672 0.410553 0.094482
0.607483 0.450256 0.000519
0.844666 0.495056 0.001007
0.999634 0.550934 0.000000
0.003418 0.526886 0.161285
0.000000 0.530304 0.161285
0.000519 0.519684 0.155975
0.143982 0.504425 0.150909
0.353882 0.526886 0.121796
0.562195 0.569519 0.014526
0.797089 0.628479 0.000519
0.988098 0.699188 0.002014
0.002533 0.724609 0.159515
0.003937 0.722717 0.161804
0.008484 0.715881 0.150269
0.000000 0.710968 0.150909
0.333771 0.705780 0.142456
0.572205 0.738922 0.042633
0.771667 0.774719 0.000000
0.959778 0.823547 0.000366
0.000366 0.934113 0.265411
0.010010 0.928894 0.271606
0.003052 0.936493 0.267059
0.162903 0.928009 0.262878
0.473938 0.925110 0.269318
0.672272 0.930695 0.273773
0.826202 0.945740 0.227844
0.959656 0.955841 0.118927
0.002899 0.071594 0.185455
0.000000 0.058319 0.190765
0.154968 0.026428 0.189240
0.303101 0.000000 0.155975
0.427856 0.000000 0.142181
0.569916 0.005829 0.140656
0.760284 0.002014 0.123444
0.966370 0.042511 0.079681
0.000519 0.083862 0.199615
0.001526 0.079437 0.190887
0.162415 0.079956 0.189880
0.299805 0.069580 0.177490
0.427246 0.086792 0.167603
0.583313 0.088287 0.154816
0.772552 0.081970 0.119659
0.977112 0.127380 0.076508
0.000000 0.179504 0.205933
0.002899 0.183929 0.211365
0.150146 0.183411 0.204041
0.306122 0.191254 0.188354
0.457214 0.186462 0.173676
0.619110 0.190887 0.152924
0.807343 0.200256 0.121307
0.987732 0.237579 0.058167
0.000519 0.292847 0.210876
0.002014 0.291321 0.214294
0.104980 0.297638 0.210876
0.279053 0.301697 0.202026
0.473938 0.316864 0.182404
0.673126 0.333588 0.156982
0.851105 0.341553 0.110413
0.999237 0.379761 0.015289
0.002899 0.409149 0.225677
0.001892 0.412567 0.218201
0.000000 0.412018 0.222626
0.231567 0.392456 0.213257
0.413208 0.423828 0.187347
0.643524 0.463043 0.147095
0.863251 0.501373 0.082275
0.998871 0.549408 0.001526
0.001526 0.550934 0.226044
0.001526 0.549042 0.226929
0.003540 0.545990 0.232513
0.156250 0.536255 0.217468
0.368561 0.540039 0.202148
0.581665 0.583832 0.155457
0.811890 0.640747 0.019592
0.993561 0.697021 0.000000
0.000000 0.742828 0.228851
0.003784 0.737396 0.235291
0.003784 0.735992 0.227570
0.002411 0.729034 0.224670
0.338837 0.715240 0.210876
0.569183 0.746887 0.171143
0.782806 0.778137 0.069763
0.969147 0.831512 0.000000
0.000366 0.934967 0.324219
0.000885 0.936493 0.325226
0.000000 0.937134 0.327148
0.119354 0.934113 0.323822
0.461151 0.931061 0.323090
0.664276 0.931580 0.324341
0.824310 0.944733 0.286774
0.969269 0.955994 0.225159
0.000000 0.061218 0.311951
0.000000 0.052887 0.315369
0.145203 0.015167 0.314850
0.329132 0.000000 0.312836
0.484161 0.001526 0.273102
0.622528 0.000000 0.241852
0.766357 0.000000 0.217834
0.960907 0.002014 0.217682
0.000000 0.081451 0.319794
0.000000 0.083374 0.319275
0.148621 0.074524 0.316864
0.338898 0.036682 0.315857
0.489105 0.002899 0.276276
0.620117 0.000000 0.249176
0.760925 0.001526 0.237427
0.963959 0.006104 0.221741
0.001007 0.191254 0.325226
0.004425 0.184937 0.336365
0.134735 0.178101 0.332062
0.343811 0.166351 0.329651
0.480865 0.172180 0.292328
0.611755 0.169525 0.268677
0.791290 0.175079 0.256042
0.986969 0.190765 0.221985
0.002411 0.313446 0.336975
0.001526 0.321686 0.342926
0.076141 0.324585 0.338501
0.334564 0.329132 0.348755
0.494995 0.325226 0.325592
0.658844 0.321167 0.301941
0.843903 0.324341 0.273315
0.996063 0.350769 0.233124
0.000000 0.438995 0.337891
0.001892 0.444916 0.340790
0.001007 0.441528 0.337372
0.279877 0.445953 0.337463
0.461761 0.452148 0.320282
0.692108 0.482269 0.306091
0.894104 0.511230 0.283295
1.000000 0.534912 0.230194
0.000000 0.578766 0.347595
0.001404 0.578888 0.345581
0.001007 0.584839 0.338013
0.169922 0.583313 0.332825
0.395355 0.560791 0.314850
0.614166 0.603424 0.289551
0.840485 0.653900 0.245361
0.999634 0.700073 0.217407
0.000885 0.759399 0.347229
0.004059 0.757507 0.345490
0.006561 0.756470 0.335205
0.004181 0.754608 0.334839
0.339478 0.741821 0.310944
0.576874 0.752075 0.287537
0.796204 0.789886 0.255280
0.974701 0.836182 0.187958
0.000000 0.945221 0.408966
0.002014 0.942200 0.406952
0.000366 0.945099 0.411377
0.027771 0.939270 0.408478
0.446869 0.933319 0.413147
0.659485 0.936493 0.410889
0.820374 0.946625 0.389740
0.964569 0.958527 0.343842
0.000000 0.043152 0.449524
0.000000 0.033783 0.447357
0.123688 0.011627 0.448517
0.319397 0.001892 0.455322
0.512115 0.000000 0.443420
0.693115 0.001404 0.418396
0.841919 0.001892 0.369049
0.992523 0.005585 0.339569
0.001892 0.089325 0.454834
0.004944 0.087799 0.458618
0.120270 0.076904 0.454834
0.327942 0.014191 0.456726
0.518066 0.001892 0.451416
0.702118 0.000000 0.420929
0.850616 0.000519 0.378815
0.992676 0.000366 0.334534
0.001007 0.196198 0.467102
0.003937 0.179474 0.471893
0.096100 0.171661 0.474792
0.322296 0.164185 0.473297
0.529938 0.135315 0.463165
0.699219 0.116577 0.421570
0.845703 0.017548 0.384491
0.988495 0.000366 0.340698
0.000000 0.323700 0.477203
0.003784 0.325592 0.475311
0.012146 0.325226 0.481262
0.302582 0.310059 0.489990
0.539062 0.305084 0.485565
0.705383 0.299164 0.439117
0.838013 0.261810 0.385132
0.994049 0.297852 0.376892
0.002014 0.465057 0.486694
0.002014 0.465057 0.489746
0.000000 0.477844 0.491516
0.282410 0.479736 0.500244
0.533905 0.500244 0.512085
0.713226 0.482788 0.474792
0.878052 0.479858 0.434570
0.997986 0.493652 0.392578
0.004791 0.618622 0.497314
0.004059 0.622040 0.496582
0.004944 0.625427 0.491119
0.161774 0.630890 0.481750
0.457611 0.627991 0.485565
0.666687 0.634308 0.458008
0.879333 0.671753 0.443695
0.999634 0.707275 0.434082
0.000000 0.785980 0.491394
0.003418 0.788239 0.491241
0.003021 0.787994 0.478577
0.006073 0.793182 0.471008
0.361237 0.779144 0.456207
0.583313 0.760040 0.431427
0.807343 0.794556 0.415222
0.990021 0.843781 0.398163
0.002014 0.953064 0.523102
0.004547 0.956482 0.524261
0.001404 0.953064 0.524750
0.005676 0.951050 0.523834
0.421295 0.947113 0.531342
0.648590 0.941956 0.517395
0.819366 0.947998 0.505798
0.966736 0.964447 0.479614
0.000000 0.040619 0.610138
0.000519 0.026306 0.613159
0.092438 0.001404 0.609741
0.334076 0.001526 0.614563
0.535278 0.000000 0.623047
0.737915 0.001404 0.612671
0.903503 0.002533 0.575470
0.995056 0.000366 0.541077
0.000519 0.089172 0.617218
0.001404 0.083862 0.617096
0.078369 0.065521 0.617462
0.330292 0.000000 0.626831
0.536682 0.000000 0.626831
0.742706 0.002014 0.615448
0.904388 0.002533 0.575470
0.997467 0.000519 0.540070
0.003784 0.179504 0.625305
0.001892 0.177094 0.625427
0.007080 0.169769 0.624176
0.320526 0.154449 0.631500
0.538177 0.098724 0.634674
0.754730 0.000000 0.626953
0.911713 0.002014 0.579895
0.995697 0.001526 0.537628
0.001526 0.336975 0.631897
0.002411 0.331543 0.638214
0.002045 0.318756 0.642761
0.286835 0.294983 0.641632
0.530487 0.280029 0.652374
0.759918 0.256500 0.638855
0.920166 0.261292 0.589661
0.997955 0.239960 0.544098
0.000000 0.487335 0.647461
0.000519 0.487335 0.647461
0.000000 0.482788 0.651398
0.228485 0.483032 0.656799
0.502136 0.459259 0.667053
0.763580 0.466095 0.660370
0.907654 0.459900 0.602936
0.996948 0.427002 0.545135
0.003937 0.650482 0.655792
0.001007 0.652374 0.656311
0.003021 0.654938 0.655792
0.048462 0.661224 0.669464
0.483551 0.676300 0.673523
0.746002 0.701477 0.696411
0.884125 0.681854 0.647461
1.000000 0.684387 0.604584
0.001404 0.815186 0.661621
0.000519 0.817719 0.658203
0.003052 0.818085 0.663635
0.002533 0.824432 0.659973
0.391449 0.822906 0.647949
0.659729 0.810394 0.639221
0.830872 0.815582 0.621155
0.997101 0.850494 0.622284
0.002533 0.964722 0.696167
0.002411 0.966217 0.687805
0.001007 0.964569 0.691101
0.003784 0.961792 0.679840
0.325836 0.958374 0.664795
0.648987 0.952057 0.679962
0.813049 0.947510 0.657959
0.962036 0.963837 0.642914
0.000885 0.016571 0.805573
0.000000 0.000885 0.795593
0.101410 0.000000 0.803436
0.365082 0.001526 0.805573
0.572235 0.002014 0.810638
0.778137 0.000885 0.810394
0.954224 0.000000 0.795593
0.999115 0.000519 0.746643
0.003937 0.088287 0.806458
0.003937 0.072479 0.813812
0.074249 0.041473 0.805450
0.360138 0.002899 0.808228
0.576141 0.001007 0.805328
0.777130 0.001892 0.810394
0.961426 0.001404 0.799500
0.998993 0.004303 0.740692
0.000000 0.188477 0.808502
0.000000 0.181885 0.805939
0.004791 0.168884 0.814941
0.341034 0.145111 0.815826
0.559570 0.055725 0.817474
0.772339 0.003937 0.810394
0.960144 0.000000 0.806458
1.000000 0.001007 0.749023
0.000000 0.339355 0.821259
0.004791 0.319275 0.822510
0.000519 0.299164 0.822662
0.277252 0.283875 0.820618
0.542114 0.264709 0.825073
0.772064 0.215881 0.826080
0.957886 0.191833 0.822144
0.998749 0.258118 0.761932
0.001770 0.504242 0.819977
0.000000 0.504242 0.823151
0.000000 0.495544 0.822144
0.191132 0.475952 0.829315
0.481781 0.437500 0.830994
0.749023 0.422821 0.835815
0.952454 0.433838 0.827087
1.000000 0.483429 0.769287
0.000885 0.677551 0.828339
0.000000 0.678436 0.831635
0.004028 0.672119 0.837341
0.003815 0.667328 0.833435
0.446350 0.662384 0.835052
0.707672 0.652008 0.837341
0.920563 0.668701 0.841003
0.999634 0.678314 0.779022
0.000000 0.839600 0.838715
0.003052 0.841766 0.840881
0.000000 0.842773 0.835815
0.002655 0.841736 0.843262
0.404480 0.841644 0.838867
0.679962 0.844421 0.843536
0.880981 0.867950 0.863129
0.992279 0.854034 0.819489
0.000763 0.971527 0.854919
0.002533 0.974060 0.857452
0.003021 0.970398 0.853638
0.003021 0.972412 0.853638
0.410583 0.974060 0.848724
0.644684 0.970520 0.842773
0.826813 0.959778 0.835693
0.968903 0.970154 0.825806
0.000763 0.015686 0.975342
0.003052 0.000519 0.984192
0.253998 0.001007 0.975952
0.458557 0.000000 0.981659
0.646881 0.002411 0.973053
0.835052 0.002533 0.981659
0.989136 0.003052 0.977112
1.000000 0.000000 0.971039
0.000000 0.110046 0.981537
0.004791 0.088409 0.976715
0.240479 0.052124 0.988373
0.455139 0.000519 0.978485
0.639771 0.002411 0.980896
0.826324 0.003052 0.979523
0.987732 0.003937 0.979248
0.996948 0.000000 0.965454
0.000000 0.212128 0.983948
0.000763 0.204163 0.979370
0.165192 0.191254 0.980530
0.426941 0.154205 0.981781
0.635712 0.050140 0.982422
0.824707 0.000366 0.977875
0.991028 0.000000 0.984589
1.000000 0.003296 0.976471
0.002014 0.331177 0.985962
0.003021 0.329010 0.988495
0.005310 0.318512 0.990631
0.365967 0.303345 0.991150
0.603210 0.269287 0.983307
0.801575 0.223724 0.983673
0.973694 0.175018 0.976837
0.999237 0.225891 0.980530
0.002014 0.538818 0.983948
0.001770 0.530609 0.979248
0.001007 0.518341 0.984192
0.190247 0.458862 0.982635
0.538971 0.448639 0.985840
0.776093 0.425842 0.988373
0.952698 0.423065 0.986206
1.000000 0.467621 0.978638
0.001007 0.721710 0.986328
0.002533 0.720703 0.986725
0.000763 0.712738 0.982788
0.131165 0.699707 0.983429
0.503784 0.676666 0.983429
0.713501 0.642639 0.987091
0.909821 0.649231 0.986328
1.000000 0.676819 0.978882
0.003052 0.874512 0.979248
0.003937 0.867676 0.975830
0.001007 0.874146 0.984711
0.000366 0.867188 0.990265
0.443695 0.859222 0.987976
0.674133 0.854523 0.983429
0.858826 0.840881 0.982056
0.998749 0.850342 0.981018
0.000000 0.990631 0.990631
0.000763 0.994690 0.987091
0.005432 0.991272 0.986725
0.014160 0.983032 0.980011
0.449524 0.989746 0.985077
0.666168 0.985321 0.990265
0.839233 0.982056 0.982788
0.983551 0.983551 0.983551
