Mellow/DevAssets/06 Winter.cube
#Created by: Byungjin (Chris) Choi
#Copyright: (C) Copyright 2026 Mellow
TITLE "Winter"
#LUT size
LUT_3D_SIZE 5
#data domain
#LUT data points
DOMAIN_MIN 0.000000 0.000000 0.000000
DOMAIN_MAX 0.903226 0.903226 0.903226
0.019623 0.054901 0.074524
0.098938 0.054016 0.084503
0.328644 0.010010 0.082733
0.609375 0.000000 0.074524
0.954224 0.064758 0.000000
0.000885 0.128143 0.074524
0.085388 0.133820 0.075378
0.365326 0.149017 0.053131
0.648224 0.166107 0.017334
0.981171 0.222015 0.005310
0.002167 0.319031 0.101562
0.000000 0.313843 0.102844
0.303741 0.340393 0.048828
0.678345 0.397583 0.001770
0.999634 0.471191 0.002167
0.001251 0.564972 0.126740
0.002655 0.553223 0.118774
0.235748 0.539673 0.111969
0.610779 0.617340 0.002655
0.977997 0.731445 0.002655
0.000763 0.931061 0.240112
0.004791 0.924469 0.237061
0.350769 0.930695 0.248199
0.712616 0.933716 0.230743
0.966370 0.955353 0.061005
0.000000 0.063629 0.162567
0.115997 0.036163 0.152557
0.353058 0.000000 0.124207
0.615967 0.017853 0.122467
0.967102 0.068176 0.027313
0.000885 0.147736 0.178253
0.115112 0.154694 0.173920
0.375702 0.160400 0.151672
0.658203 0.165588 0.113708
0.984955 0.214935 0.007080
0.002167 0.343048 0.193939
0.000000 0.344330 0.194794
0.333435 0.356079 0.162567
0.707947 0.404541 0.097137
0.999237 0.466766 0.002655
0.002655 0.586334 0.202271
0.000000 0.582794 0.203918
0.249023 0.559296 0.194427
0.624298 0.622925 0.105103
0.987091 0.734497 0.000000
0.000000 0.937653 0.308929
0.004791 0.931946 0.306274
0.334167 0.928894 0.306030
0.706390 0.934967 0.292847
0.967224 0.955841 0.200256
0.000000 0.053131 0.379608
0.076782 0.020477 0.373535
0.420593 0.000000 0.371765
0.694763 0.001770 0.312408
0.966736 0.003540 0.267059
0.003052 0.164307 0.396576
0.041473 0.146851 0.398346
0.433624 0.120300 0.392273
0.690063 0.070404 0.319489
0.975586 0.096405 0.294342
0.001770 0.387451 0.410980
0.000000 0.390991 0.412750
0.434479 0.410980 0.422363
0.730560 0.396179 0.376923
0.999634 0.416290 0.309418
0.005188 0.639984 0.413666
0.001251 0.642517 0.405304
0.291992 0.640717 0.393524
0.673004 0.656403 0.355530
0.998230 0.737518 0.314697
0.005707 0.949280 0.466522
0.002167 0.948883 0.463623
0.276855 0.947113 0.470459
0.692871 0.935364 0.454529
0.971039 0.963196 0.406952
0.000000 0.035309 0.656433
0.001251 0.002655 0.661743
0.444641 0.000000 0.663025
0.792450 0.002655 0.657837
0.994446 0.000763 0.587616
0.000000 0.156982 0.666565
0.001251 0.143463 0.673004
0.436249 0.080597 0.677307
0.806854 0.000000 0.671234
0.996948 0.000366 0.591919
0.000885 0.412750 0.679962
0.001251 0.405823 0.685669
0.383118 0.363922 0.693359
0.822021 0.346924 0.698669
0.997467 0.352295 0.596344
0.003937 0.702240 0.700836
0.003540 0.700439 0.707031
0.283997 0.709167 0.705017
0.785858 0.745361 0.737518
1.000000 0.727020 0.663025
0.003540 0.966217 0.737518
0.001770 0.966217 0.730164
0.014008 0.965485 0.716034
0.693634 0.954468 0.714630
0.963959 0.965851 0.686279
0.000763 0.015686 0.975342
0.194946 0.000885 0.977997
0.555542 0.000366 0.977356
0.874908 0.002655 0.978882
1.000000 0.000000 0.971039
0.000885 0.183563 0.978882
0.103485 0.166595 0.989624
0.534027 0.054901 0.978485
0.865295 0.000885 0.975952
0.998230 0.004425 0.975342
0.003937 0.435852 0.988495
0.003052 0.394165 0.989380
0.450470 0.368225 0.986084
0.836853 0.322662 0.983551
0.998230 0.350983 0.975342
0.000885 0.761932 0.985840
0.000366 0.757629 0.989899
0.330872 0.740204 0.985596
0.750183 0.697937 0.987610
1.000000 0.725372 0.973694
0.000000 0.990631 0.990631
0.005310 0.984955 0.990265
0.301117 0.984955 0.989899
0.708801 0.978882 0.983307
0.983551 0.983551 0.983551
